/* XPM */
static char *har203a[] = {
/* columns rows colors chars-per-pixel */
"60 60 256 2 ",
"   c black",
".  c #800000",
"X  c #008000",
"o  c #808000",
"O  c navy",
"+  c #800080",
"@  c #008080",
"#  c #C0C0C0",
"$  c #C0DCC0",
"%  c #A4C8F0",
"&  c white",
"*  c black",
"=  c #213129",
"-  c #213121",
";  c #182921",
":  c #102918",
">  c #313931",
",  c #293131",
"<  c #313929",
"1  c #183129",
"2  c #4A4231",
"3  c #394239",
"4  c #84634A",
"5  c #213131",
"6  c #846B5A",
"7  c #313939",
"8  c #293931",
"9  c #423931",
"0  c #BD947B",
"q  c #313129",
"w  c #A58473",
"e  c #735A4A",
"r  c #6B635A",
"t  c #4A4239",
"y  c #846B52",
"u  c #9C8C7B",
"i  c #B59C84",
"p  c #AD7B63",
"a  c #947363",
"s  c #635A52",
"d  c #634A42",
"f  c #6B5242",
"g  c #312931",
"h  c #634A39",
"j  c #7B6452",
"k  c #4A3929",
"l  c #736B63",
"z  c #9C7B63",
"x  c #AD8C7B",
"c  c #735242",
"v  c #A5846B",
"b  c #5A4A39",
"n  c #AD7A6B",
"m  c #BD846B",
"M  c #9C6B52",
"N  c #C69C84",
"B  c #A59C94",
"V  c #846B63",
"C  c #4A4A39",
"Z  c gray26",
"A  c #293139",
"S  c #B58473",
"D  c #5A5A52",
"F  c #4A4B42",
"G  c #B5947B",
"H  c #B5A594",
"J  c #525242",
"K  c #A5735A",
"L  c #6B524A",
"P  c #946B5A",
"I  c #947B73",
"U  c gray39",
"Y  c #9C735A",
"T  c #735A52",
"R  c #102921",
"E  c #634231",
"W  c #CE9C8C",
"Q  c #CEA594",
"!  c #B5A59C",
"~  c #A59484",
"^  c #316B94",
"/  c #C69C7B",
"(  c #EFE7E7",
")  c #316384",
"_  c #9C7363",
"`  c #C69C8C",
"'  c #6B5239",
"]  c #5A4A4A",
"[  c #5A4231",
"{  c #AD9C8C",
"}  c #AD9484",
"|  c #293939",
" . c #8C7B6B",
".. c #5A4A42",
"X. c #393942",
"o. c #182929",
"O. c #BDADA5",
"+. c #4A524A",
"@. c #DEDED6",
"#. c #8C736B",
"$. c #D6D6CE",
"%. c #E7E7DE",
"&. c #7B6B63",
"*. c #929C9C",
"=. c #293A43",
"-. c #845A42",
";. c #7B5A42",
":. c #947B7B",
">. c #8C7D73",
",. c #634A4A",
"<. c #CE9C84",
"1. c #CEAD9C",
"2. c #9C634A",
"3. c #7B736B",
"4. c #848C8C",
"5. c gray29",
"6. c #BD948C",
"7. c #804A42",
"8. c gray32",
"9. c #313121",
"0. c #9C7B6B",
"q. c #C6BDB5",
"w. c #313942",
"e. c #8C847B",
"r. c #E7E7E7",
"t. c #B5ADA5",
"y. c #94948C",
"u. c #8C9494",
"i. c #393939",
"p. c #C6A594",
"a. c #523929",
"s. c #B5BFBD",
"d. c #D6AD9C",
"f. c #A5948C",
"g. c #5A6364",
"h. c #312921",
"j. c #21313B",
"k. c #D8BDA5",
"l. c gray71",
"z. c #846B6B",
"x. c #CECEC6",
"c. c gray87",
"v. c #BD8C73",
"b. c gray45",
"n. c #9C6352",
"m. c #847B7B",
"M. c #D6B59C",
"N. c #636A6B",
"B. c #CECECE",
"V. c #7B7B7B",
"C. c #5A5242",
"Z. c #BDADAD",
"A. c #9C5249",
"S. c #394A52",
"D. c #C68C73",
"F. c #D6B5A5",
"G. c #4A312F",
"H. c #A59C9C",
"J. c #C6B5AD",
"K. c #7B7373",
"L. c #525A63",
"P. c #7B8384",
"I. c #31394A",
"U. c gray97",
"Y. c #C6C6C6",
"T. c #CEBDAD",
"R. c #A5A5A5",
"E. c #734731",
"W. c #C6D6D6",
"Q. c #6B5231",
"!. c #393121",
"~. c #39424A",
"^. c #CEC6BD",
"/. c #7B4939",
"(. c #B59473",
"). c #295273",
"_. c #735239",
"`. c #C6ADA5",
"'. c #BD9473",
"]. c #874539",
"[. c #A5ADAD",
"{. c #182121",
"}. c #213F57",
"|. c #4A5E67",
" X c #DEC6AD",
".X c #42525A",
"XX c #633929",
"oX c #C6CECE",
"OX c #734A39",
"+X c #315273",
"@X c #D6CEBD",
"#X c #D6C6B5",
"$X c #29597B",
"%X c #4A4252",
"&X c #EFEFEF",
"*X c #B5B5AD",
"=X c #636777",
"-X c #425263",
";X c #717986",
":X c #426B8C",
">X c #7B8494",
",X c #7B4229",
"<X c #BD848C",
"1X c #5A3121",
"2X c #8CA5AD",
"3X c #B5737B",
"4X c #5A4263",
"5X c #634A6B",
"6X c #526373",
"7X c #4A6B84",
"8X c black",
"9X c #800000",
"0X c #008000",
"qX c #808000",
"wX c navy",
"eX c #800080",
"rX c #008080",
"tX c #C0C0C0",
"yX c #C0DCC0",
"uX c #A4C8F0",
"iX c #B3353F",
"pX c #4F171C",
"aX c #ECBDC0",
"sX c black",
"dX c black",
"fX c black",
"gX c black",
"hX c black",
"jX c black",
"kX c black",
"lX c black",
"zX c black",
"xX c black",
"cX c black",
"vX c black",
"bX c black",
"nX c black",
"mX c black",
"MX c black",
"NX c black",
"BX c black",
"VX c black",
"CX c black",
"ZX c black",
"AX c black",
"SX c black",
"DX c #FFFBF0",
"FX c #A0A0A4",
"GX c #808080",
"HX c red",
"JX c green",
"KX c yellow",
"LX c blue",
"PX c magenta",
"IX c cyan",
"UX c white",
/* pixels */
"iXiXiXiXiXiXiXiXiXiXiXiXiXiXiXiXiXiXiXiXiXiXiXiXiXiXiXiXiXiXiXiXiXiXiXiXiXiXiXiXiXiXiXiXiXiXiXiXiXiXiXiXiXiXiXiXiXiXiXiX",
"iXiXiXiXiXiXiXiXiXiXiXiXiXiXiXiXiXiXiXiXiXiXiXiXiXiX5.Z X.3 > > g > 7 iXiXiXiXiXiXiXiXiXiXiXiXiXiXiXiXiXiXiXiXiXiXiXiXiX",
"iXiXiXiXiXiXiXiXiXiXiXiXiXiXiXiXiXiXiXiXiX8.5.Z Z 3 3 3 7 8 > > = > g , , 7 iXiXiXiXiXiXiXiXiXiXiXiXiXiXiXiXiXiXiXiXiXiX",
"iXiXiXiXiXiXiXiXiXiXiXiXiXiXiXiXiXiXiXiXF X.i.i.i.g g > , g = g , = , = , , g > iXiXiXiXiXiXiXiXiXiXiXiXiXiXiXiXiXiXiXiX",
"iXiXiXiXiXiXiXiXiXiXiXiXiXiXiXiXiXiX8.Z X.i., 7 > > , > < , g = = < = , < , q , , 8 iXiXiXiXiXiXiXiXiXiXiXiXiXiXiXiXiXiX",
"iXiXiXiXiXiXiXiXiXiXiXiXiXiXiXiXiX5.3 > X.g > > g 8 q g , , = , = = = = = , , = 5 5 q Z iXiXiXiXiXiXiXiXiXiXiXiXiXiXiXiX",
"iXiXiXiXiXiXiXiXiXiXiXiXiXiXiXiXZ Z Z i.> 7 g > g g q g = g = = = = , , = = , , , , , g Z iXiXiXiXiXiXiXiXiXiXiXiXiXiXiX",
"iXiXiXiXiXiXiXiXiXiXiXiXiXiXiX5.3 3 | Z > i., > g g g 7 , = = - = = = = = = = , = = = q = 5.iXiXiXiXiXiXiXiXiXiXiXiXiXiX",
"iXiXiXiXiXiXiXiXiXiXiXiXiXiXU 3 3 > 7 7 i.> q Z > > > g g , = g < = g , = 9.= = = = q = q > iXiXiXiXiXiXiXiXiXiXiXiXiXiX",
"iXiXiXiXiXiXiXiXiXiXiXiXiXiX5.Z 7 7 > ] J ,.L s C 9 3 i.> g > > g > , = = q = = = , , 5 = , > iXiXiXiXiXiXiXiXiXiXiXiXiX",
"iXiXiXiXiXiXiXiXiXiXiXiXiX+.Z 3 3 3 e a a  .a V 6 4 L e f d ....,.2 9 9 g t 2 2 9 > < = 5 < , iXiXiXiXiXiXiXiXiXiXiXiXiX",
"iXiXiXiXiXiXiXiXiXiXiXiXiXZ Z i.> ] #. .#.#.a V y y j 6 j 6 6 V #.I a 6 j e c c h 2 2 t g g = 3 iXiXiXiXiXiXiXiXiXiXiXiX",
"iXiXiXiXiXiXiXiXiXiXiXiXiXZ 3 i.F T u I w  .#.V 6 6 6 6 j &.V I I :.#.6 j j j c f d d ..t = = 8 iXiXiXiXiXiXiXiXiXiXiXiX",
"iXiXiXiXiXiXiXiXiXiXiXiX5.7 7 7 s V u ~ u I #.V 6 y y j j V #. .u I :.a j a V e f f d h b q = 8 iXiXiXiXiXiXiXiXiXiXiXiX",
"iXiXiXiXiXiXiXiXiXiXiXiX5.3 3 i.l  .u u ~ :.V V y 6 y 6 j V >.I :.u I #.z.j 6 y c h b h d 2 , = 7 iXiXiXiXiXiXiXiXiXiXiX",
"iXiXiXiXiXiXiXiXiXiXiXiXX.Z Z 5.K.:.~ f.u :.I #.V 6 V a V #.I u ~ ~ u I #.#.#.j f h b b b t g = g iXiXiXiXiXiXiXiXiXiXiX",
"iXiXiXiXiXiXiXiXiXiXiXg.Z 7 i.s z.y.y.:.I :. .>.j 6 j V 6 #.u f.6.{ ~ ~ :.>.#.L d h b t C C = 8 8 iXiXiXiXiXiXiXiXiXiXiX",
"iXiXiXiXiXiXiXiXiXiXiXU Z > > +.m.t.f.f.u >.V 6 6 6 V V V V #.u { } u :.z.V &.d d b b t t J 8 = g iXiXiXiXiXiXiXiXiXiXiX",
"iXiXiXiXiXiXiXiXiXiXiXN.w.7 7 D ! Z.Z.H.B u I V V 6 j V V I :.B { 6.{ :.z.>.V e h b t t 9 t > g , iXiXiXiXiXiXiXiXiXiXiX",
"iXiXiXiXiXiXiXiXiXiXiXb.3 > 3 s *X^.O.t.B u >.>.6 j 6 a >.u u B B B f.u u I V j e d C 2 G.t > = 5 iXiXiXiXiXiXiXiXiXiXiX",
"iXiXiXiXiXiXiXiXiXiXiXiXZ > > e.t.q.Z.t.~ :.>.:.V V 6 #.w u u H ! B u u u w a j e d t G.2 2 i.= < iXiXiXiXiXiXiXiXiXiXiX",
"iXiXiXiXiXiXiXiXiXiXiXiXt i.7 u ! l.J.H.u z.#.u w  .V 6 #.~ ! ! H B ~ ~ { } I 6 c f ..9 G.t i., , iXiXiXiXiXiXiXiXiXiXiX",
"iXiXiXiXiXiXiXiXiXiXiXiX5.Z 3 :.O.Z.t.B :.&.r z.V 6 j j y 0.w { { ~ u ~ u a 6 L e d J t t 3 3 q X.iXiXiXiXiXiXiXiXiXiXiX",
"iXiXiXiXiXiXiXiXiXiXiXiXiXF F :.! t.B B B r ,.] t F t t d 7.;.6 V V 6 6 c b t 9 3 9 > g q 3 i., %XiXiXiXiXiXiXiXiXiXiXiX",
"iXiXiXiXiXiXiXiXiXiXiXiX:.e.D B ! t.f.H.K.] J t 9 > g t b ' ' h ' h h h G.9 > = = q > > g 9 F g iXiXiXiXiXiXiXiXiXiXiXiX",
"iXiXiXiXiXiXiXiXiXiXiXiXc `.e.B H B u u :.&.s ..J 3 9 J b ' 2 b h 2 2 E k q = g > > > > q 9 3 iXiXiXiXiXiXiXiXiXiXiXiXiX",
"iXiXiXiXiXiXiXiXiXiXiXiX4 W T.B B B :.B H u r 3 t C g > > t 2 G.2 G.9 < q q , > 3 > 9 9 > i.t iXiXiXiXiXiXiXiXiXiXiXiXiX",
"iXiXiXiXiXiXiXiXiXiXiXiX_ @Xp.B f.B f.f.r Z < > = = q > > > ..f d b 9 < g g = = = < < h.i.> d iXiXiXiXiXiXiXiXiXiXiXiXiX",
"iXiXiXiXiXiXiXiXiXiXiXiX@X4 f B y.B :.>.s ~ w f J d ..t > 9 T V 6 h 2 G.g g 9 t J a.k < 9 9 ] iXiXiXiXiXiXiXiXiXiXiXiXiX",
"iXiXiXiXiXiXiXiXiXiXiXiXp.[ 2 B f.t.:.I #. .6 d t t J ..d ,.V a &.d 2 t ,.J > t a.2 9 t J 9 J iXiXiXiXiXiXiXiXiXiXiXiXiX",
"iXiXiXiXiXiXiXiXiXiXiXiXi a.d B ! Z.B I 6 6 y e e L e j &.&.:.V :.e 2 2 ,.T e L J t t a.b 2 J iXiXiXiXiXiXiXiXiXiXiXiXiX",
"iXiXiXiXiXiXiXiXiXiXiXiXO.t ..H ! q.O.i v z a V y 6 I #.&.:.H v u #.h 2 r  .#.j e L L e d J J iXiXiXiXiXiXiXiXiXiXiXiXiX",
"iXiXiXiXiXiXiXiXiXiXiXiXe P &.B O.q.T.H w z v I w 0.a V e f.{ } #.6 h [ f j I w I I V 4 c h C iXiXiXiXiXiXiXiXiXiXiXiXiX",
"iXiXiXiXiXiXiXiXiXiXiXiX} u u B O.T.q.H x v v x } 0.j T ,.I ~ x #.6 h b b j V #.u u  .e c d C iXiXiXiXiXiXiXiXiXiXiXiXiX",
"iXiXiXiXiXiXiXiXiXiXiXiXO.I u B ! J.^.@Xi _ _ a #.V ,.] j 6 a 6 a 6 f b t t ,.6 I  .V c c d t iXiXiXiXiXiXiXiXiXiXiXiXiX",
"iXiXiXiXiXiXiXiXiXiXiXiXiXj y.f.} } J.x.i P y y c 2 9 y y y x _ 0._ 4 7.h f t 9 d e T f E 2 t iXiXiXiXiXiXiXiXiXiXiXiXiX",
"iXiXiXiXiXiXiXiXiXiXiXiXiXiXH.y. .I f.J.x e f h 2 > > 6.v x p.n H O.v 4 y c t < < 2 b 2 2 3 9 iXiXiXiXiXiXiXiXiXiXiXiXiX",
"iXiXiXiXiXiXiXiXiXiXiXiXiXiXiXu >.>.#.B  .h b 9 > 9 > ~ O.i } Y 2.M -._.' ' 9 9 = q 9 9 > > > iXiXiXiXiXiXiXiXiXiXiXiXiX",
"iXiXiXiXiXiXiXiXiXiXiXiXiXiXiXy.z.:.&.u z.t 9 > 9 2 b t t L e 4 7._.[ 9 - 9 [ 2 q = X.q < > 3 iXiXiXiXiXiXiXiXiXiXiXiXiX",
"iXiXiXiXiXiXiXiXiXiXiXiXiXiXiXy.:.K.l &.r 9 , 3 t J s D Z 8 = 3 t > = = = 9 2 > 3 > = q , g i.iXiXiXiXiXiXiXiXiXiXiXiXiX",
"iXiXiXiXiXiXiXiXiXiXiXiXiXiXiXu u e.r T s 3 F 3 i.3 F 3 7 | , < = > 3 = = > 7 = = < g g g > 7 iXiXiXiXiXiXiXiXiXiXiXiXiX",
"iXiXiXiXiXiXiXiXiXiXiXiXiXiXiX:.e.>.,.s r t F 8 < > s ] G.i.F Z ] ] 8 g < < > = = = > q g > iXiXiXiXiXiXiXiXiXiXiXiXiXiX",
"iXiXiXiXiXiXiXiXiXiXiXiXiXiXiXu &.l s s r F F > q g ,.T L d d d &.&...t 9 > = g , > > g > > iXiXiXiXiXiXiXiXiXiXiXiXiXiX",
"iXiXiXiXiXiXiXiXiXiXiXiXiXiXiXy.l r ,.r ] ] F > g t > I n 1.` G OXz c 6 t 9 d t 3 g > > > 7 iXiXiXiXiXiXiXiXiXiXiXiXiXiX",
"iXiXiXiXiXiXiXiXiXiXiXiXiXiXiXu.r s ] ] s D t Z t ,.w 6 4 } x.T.z O.u e e e f F > > > g , iXiXiXiXiXiXiXiXiXiXiXiXiXiXiX",
"iXiXiXiXiXiXiXiXiXiXiXiXiX8.5.q.l ] J ] ] ] F F F ,.~ ! u a #. .0.a f.y e h ] t i.3 g q g iXiXiXiXiXiXiXiXiXiXiXiXiXiXiX",
"iXiXiXiXiXiXiXiXiXiXg.w.5.L.3 %.y.s J C.J ] ..t F s >.w  .y y V z.y c f h b J 3 g > > = iXiXiXiXiXiXiXiXiXiXiXiXiXiXiXiX",
"iXiXiXiXiXiXiXiXi.8 X.~.X..X7 ( @.U ..J J ] J J ,.] j 6 e C 2 9 G.G.t 9 9 t 3 3 > g , g iXiXiXiXiXiXiXiXiXiXiXiXiXiXiXiX",
"iXiXiXiXiXiXX.7 g ~.X.~.~.S.> ( ( ^.s ] 5.] ] ] ] r ] T T ..J t 3 t t 2 t J ] > i.> g > > 7 iXiXiXiXiXiXiXiXiXiXiXiXiXiX",
"iXiXiX%XX.> g q w.w.> 7 X.5.> %.( ( >.s ] J ,.] s l l J ,...C F t F F J C J ..3 7 7 i.> , , , 8 | S.iXiXiXiXiXiXiXiXiXiX",
"L.S.X.i.8 , , , 7 g 8 7 X.Z 8 r.( ( %.3.r J ..] r &.r r s ,.] s s ] J F t F 9 7 7 +.Z > 8 8 = g , , 7 7 7 S.iXiXiXiXiXiX",
"X.X.7 | 8 8 < | g , | 7 X.X.8 %.( ( ( %.s s F +.D U s r r s s l U s s C t 3 3 7 i.B.~.> > 8 , = , 8 , A 8 8 7 8 7 X.iXiX",
"7 7 , 8 , , 5 = 8 5 5 8 w.X.8 B.( ( ( ( %.] s F F ] s s r D ] J J J 9 > > i.7 7 ^.$.L.> , 8 < , , 8 = g 5 A 8 , , g 8 | ",
"7 7 7 8 8 , , 8 8 | A 8 7 X.7 u.( ( ( ( ( @.5.D F F ] J J F 9 9 > > > > > i.w.3.@.@.u.> 8 8 = , = , 5 5 , , , A , , g 8 ",
"7 > 8 | | , , 8 = 8 , A g | , 3 ( ( ( ( ( ( $.s X.5.5.+.J i.> q g > > g i.w.X.$.%.%.B.8 g > 5 , , , < , , , , 8 8 , , , ",
"7 7 , | 7 8 = > 8 8 5 8 8 A 8 5 @.( ( ( ( %.$.x.Z.F D 5.+.5.3 < > > 3 > 7 X.$.%.c.%.@.7 8 g g 8 , , , j.5 , , , , 7 8 , ",
"> 7 7 7 7 , 8 , , = 5 , > , 8 8 l.( ( ( ( %.@.x.^.*Xu Z 5.Z g q > g > 8 > $.@.%.%.%.@.X.g > 8 8 , A , , , , , , , A , , ",
"> 7 , > | 8 8 , 8 , 8 8 | , , 8 ;X%.( ( ( ( %.@.x.Z.H.B u i.8 , < = < J x.%.%.%.%.%.%.L.> A 8 A 8 8 8 , 5 = , 8 , , , , ",
"7 7 > > | , 8 | , g A g > 8 8 , w.$.( ( ( ( %.%.%.$.l.*.B u  .] F D t.m.Y.%.%.%.%.%.%.4.7 7 > g , 8 , , , , 8 , , , , , ",
"7 7 8 8 | 8 7 7 A g 8 , , A , 8 > Y.( ( ( ( %.( ( %.$.$.q.^.O.E.].E.].].7.u.%.%.( %.@.q.7 > g > > , g 5 , A , , = , , , "
};
