/* XPM */
static char *rit203a[] = {
/* columns rows colors chars-per-pixel */
"60 60 256 2 ",
"   c black",
".  c #800000",
"X  c #008000",
"o  c #808000",
"O  c navy",
"+  c #800080",
"@  c #008080",
"#  c #C0C0C0",
"$  c #C0DCC0",
"%  c #A4C8F0",
"&  c white",
"*  c black",
"=  c #213129",
"-  c #213121",
";  c #182921",
":  c #102918",
">  c #313931",
",  c #293131",
"<  c #313929",
"1  c #183129",
"2  c #4A4231",
"3  c #394239",
"4  c #84634A",
"5  c #213131",
"6  c #846B5A",
"7  c #313939",
"8  c #293931",
"9  c #423931",
"0  c #BD947B",
"q  c #313129",
"w  c #A58473",
"e  c #735A4A",
"r  c #6B635A",
"t  c #4A4239",
"y  c #846B52",
"u  c #9C8C7B",
"i  c #B59C84",
"p  c #AD7B63",
"a  c #947363",
"s  c #635A52",
"d  c #634A42",
"f  c #6B5242",
"g  c #312931",
"h  c #634A39",
"j  c #7B6452",
"k  c #4A3929",
"l  c #736B63",
"z  c #9C7B63",
"x  c #AD8C7B",
"c  c #735242",
"v  c #A5846B",
"b  c #5A4A39",
"n  c #AD7A6B",
"m  c #BD846B",
"M  c #9C6B52",
"N  c #C69C84",
"B  c #A59C94",
"V  c #846B63",
"C  c #4A4A39",
"Z  c gray26",
"A  c #293139",
"S  c #B58473",
"D  c #5A5A52",
"F  c #4A4B42",
"G  c #B5947B",
"H  c #B5A594",
"J  c #525242",
"K  c #A5735A",
"L  c #6B524A",
"P  c #946B5A",
"I  c #947B73",
"U  c gray39",
"Y  c #9C735A",
"T  c #735A52",
"R  c #102921",
"E  c #634231",
"W  c #CE9C8C",
"Q  c #CEA594",
"!  c #B5A59C",
"~  c #A59484",
"^  c #316B94",
"/  c #C69C7B",
"(  c #EFE7E7",
")  c #316384",
"_  c #9C7363",
"`  c #C69C8C",
"'  c #6B5239",
"]  c #5A4A4A",
"[  c #5A4231",
"{  c #AD9C8C",
"}  c #AD9484",
"|  c #293939",
" . c #8C7B6B",
".. c #5A4A42",
"X. c #393942",
"o. c #182929",
"O. c #BDADA5",
"+. c #4A524A",
"@. c #DEDED6",
"#. c #8C736B",
"$. c #D6D6CE",
"%. c #E7E7DE",
"&. c #7B6B63",
"*. c #929C9C",
"=. c #293A43",
"-. c #845A42",
";. c #7B5A42",
":. c #947B7B",
">. c #8C7D73",
",. c #634A4A",
"<. c #CE9C84",
"1. c #CEAD9C",
"2. c #9C634A",
"3. c #7B736B",
"4. c #848C8C",
"5. c gray29",
"6. c #BD948C",
"7. c #804A42",
"8. c gray32",
"9. c #313121",
"0. c #9C7B6B",
"q. c #C6BDB5",
"w. c #313942",
"e. c #8C847B",
"r. c #E7E7E7",
"t. c #B5ADA5",
"y. c #94948C",
"u. c #8C9494",
"i. c #393939",
"p. c #C6A594",
"a. c #523929",
"s. c #B5BFBD",
"d. c #D6AD9C",
"f. c #A5948C",
"g. c #5A6364",
"h. c #312921",
"j. c #21313B",
"k. c #D8BDA5",
"l. c gray71",
"z. c #846B6B",
"x. c #CECEC6",
"c. c gray87",
"v. c #BD8C73",
"b. c gray45",
"n. c #9C6352",
"m. c #847B7B",
"M. c #D6B59C",
"N. c #636A6B",
"B. c #CECECE",
"V. c #7B7B7B",
"C. c #5A5242",
"Z. c #BDADAD",
"A. c #9C5249",
"S. c #394A52",
"D. c #C68C73",
"F. c #D6B5A5",
"G. c #4A312F",
"H. c #A59C9C",
"J. c #C6B5AD",
"K. c #7B7373",
"L. c #525A63",
"P. c #7B8384",
"I. c #31394A",
"U. c gray97",
"Y. c #C6C6C6",
"T. c #CEBDAD",
"R. c #A5A5A5",
"E. c #734731",
"W. c #C6D6D6",
"Q. c #6B5231",
"!. c #393121",
"~. c #39424A",
"^. c #CEC6BD",
"/. c #7B4939",
"(. c #B59473",
"). c #295273",
"_. c #735239",
"`. c #C6ADA5",
"'. c #BD9473",
"]. c #874539",
"[. c #A5ADAD",
"{. c #182121",
"}. c #213F57",
"|. c #4A5E67",
" X c #DEC6AD",
".X c #42525A",
"XX c #633929",
"oX c #C6CECE",
"OX c #734A39",
"+X c #315273",
"@X c #D6CEBD",
"#X c #D6C6B5",
"$X c #29597B",
"%X c #4A4252",
"&X c #EFEFEF",
"*X c #B5B5AD",
"=X c #636777",
"-X c #425263",
";X c #717986",
":X c #426B8C",
">X c #7B8494",
",X c #7B4229",
"<X c #BD848C",
"1X c #5A3121",
"2X c #8CA5AD",
"3X c #B5737B",
"4X c #5A4263",
"5X c #634A6B",
"6X c #526373",
"7X c #4A6B84",
"8X c black",
"9X c #800000",
"0X c #008000",
"qX c #808000",
"wX c navy",
"eX c #800080",
"rX c #008080",
"tX c #C0C0C0",
"yX c #C0DCC0",
"uX c #A4C8F0",
"iX c #B3353F",
"pX c #4F171C",
"aX c #ECBDC0",
"sX c black",
"dX c black",
"fX c black",
"gX c black",
"hX c black",
"jX c black",
"kX c black",
"lX c black",
"zX c black",
"xX c black",
"cX c black",
"vX c black",
"bX c black",
"nX c black",
"mX c black",
"MX c black",
"NX c black",
"BX c black",
"VX c black",
"CX c black",
"ZX c black",
"AX c black",
"SX c black",
"DX c #FFFBF0",
"FX c #A0A0A4",
"GX c #808080",
"HX c red",
"JX c green",
"KX c yellow",
"LX c blue",
"PX c magenta",
"IX c cyan",
"UX c white",
/* pixels */
"iXiXiXiXiXiXiXiXiXiXiXiXiXiXiXiXiXiXiXiXiXiXiXiXiXiXiXiXiXiXiXiXiXiXiXiXiXiXiXiXiXiXiXiXiXiXiXiXiXiXiXiXiXiXiXiXiXiXiXiX",
"iXiXiXiXiXiXiXiXiXiXiXiXiXiXiXiXiXiXiXiXiXiXiXiXiXiXiXiXiXiXiXiXiXiX7 7 7 iXiXiXiXiXiXiXiXiXiXiXiXiXiXiXiXiXiXiXiXiXiXiX",
"iXiXiXiXiXiXiXiXiXiXiXiXiXiXiXiXiXiXiXiXiXiXiX9 q iXiXiXiXiXiXiX> > 7 > 7 > 8 < < 5 iXiXiXiXiXiXiXiXiXiXiXiXiXiXiXiXiXiX",
"iXiXiXiXiXiXiXiXiXiXiXiXiXiXiXiXiXiXiXiXiXiXZ 3 3 = - = = > 8 , 7 - - = < = = = - = , , iXiXiXiXiXiXiXiXiXiXiXiXiXiXiXiX",
"iXiXiXiXiXiXiXiXiXiXiXiXiXiXiXiXiXiXiXiXiX3 9 > < < - q - 9 - > > - ; - = - - - = ; = = = 5 iXiXiXiXiXiXiXiXiXiXiXiXiXiX",
"iXiXiXiXiXiXiXiXiXiXiXiXiXiXiXiXiXiXiXiX> 3 < = = = = - ; = : ; = - - - - ; 1 - - ; ; ; ; - = iXiXiXiXiXiXiXiXiXiXiXiXiX",
"iXiXiXiXiXiXiXiXiXiXiXiXiXiXiXiXiXiXiXiX< - - - - - ; : : - ; : : ; : : - - ; : = ; : - - ; - = iXiXiXiXiXiXiXiXiXiXiXiX",
"iXiXiXiXiXiXiXiXiXiXiXiXiXiXiXiXiXiX3 3 - ; : - - ; - - ; ; - ; ; ; ; : ; : : ; - - - ; ; ; ; - = iXiXiXiXiXiXiXiXiXiXiX",
"iXiXiXiXiXiXiXiXiXiXiXiXiXiXiXiXiX> - ; - ; ; : R ; - R - ; R {.; ; : : : - ; : ; - - : {.; : R ; 5 iXiXiXiXiXiXiXiXiXiX",
"iXiXiXiXiXiXiXiXiXiXiXiXiXiXiXiX7 3 = - - - : - : : ; ; ; ; ; : : R : ; ; ; : : ; R : ; : ; ; - - ; , iXiXiXiXiXiXiXiXiX",
"iXiXiXiXiXiXiXiXiXiXiXiXiXiXiXiX9 9 = - - : : ; ; : : : ; ; : ; : ; : : : : : : ; : ; : - ; ; ; ; - , 8 iXiXiXiXiXiXiXiX",
"iXiXiXiXiXiXiXiXiXiXiXiXiXiXF 3 - = - ; = ; : ; - ; ; R : {.{.: ; : ; ; : - ; ; ; - ; : - ; ; ; ; - - = iXiXiXiXiXiXiXiX",
"iXiXiXiXiXiXiXiXiXiXiXiX] t C > = - - - ; ; : ; ; ; : ; ; ; ; ; R R : ; ; ; ; : : : R ; ; ; ; ; ; : ; ; iXiXiXiXiXiXiXiX",
"iXiXiXiXiXiXiXiXiXiXiXJ 9 < - < - - - - ; : ; ; ; ; ; ; ; : R R ; ; R : - R ; : : ; : ; : ; : ; - ; R - ; iXiXiXiXiXiXiX",
"iXiXiXiXiXiXiXiXiXiX3 J > q - ; ; ; = ; ; - ; ; : ; : ; ; : : : ; : - : R ; ; : : : R ; ; : : : R ; ; : ; iXiXiXiXiXiXiX",
"iXiXiXiXiXiXiXiXiXiX< - q = ; ; - ; - ; ; ; ; ; ; ; ; : ; : ; : ; - - - 9.- q : ; : ; ; : ; ; R ; ; ; R R iXiXiXiXiXiXiX",
"iXiXiXiXiXiXiXiXiX7 ; - = = ; : : ; : ; : : ; ; ; - R - - h.- !.k [ a.G.E E E !.- : : - ; ; : ; : : : : = iXiXiXiXiXiXiX",
"iXiXiXiXiXiXiXiXiX| - - - - ; ; ; ; ; : : ; ; : ; - h.!.k 2 ' 4 y c ' 4 4 4 4 2 - ; ; : ; : ; ; ; ; : : iXiXiXiXiXiXiXiX",
"iXiXiXiXiXiXiXiXiX7 ; - - - - : ; ; : - ; - - - - - k E 4 M M z P 4 4 v v P a c < - ; ; : ; ; - : R ; R iXiXiXiXiXiXiXiX",
"iXiXiXiXiXiXiXiXiXiX; - - ; ; ; ; - ; ; ; : ; - - k E ;.0.P P e y z x x G x _ 4 2 - - ; - ; ; ; R ; ; ; iXiXiXiXiXiXiXiX",
"iXiXiXiXiXiXiXiXiXiX- - : ; R - ; ; ; : ; : ; - 9.' 4 _ v v n n x x G i i G v y f - ; - - ; ; ; ; ; ; R iXiXiXiXiXiXiXiX",
"iXiXiXiXiXiXiXiXiX= R ; ; ; ; : - : : : ; - - - 2 y z v G G 0 0 i i i i i G x P ;.k - - - - - ; ; : R ; iXiXiXiXiXiXiXiX",
"iXiXiXiXiXiXiXiXiX- ; : : ; ; : ; - : - - - ; 9.f 6 P w G i 0 0 i 0 0 i 0 i i 0.j [ 9.q - ; ; ; : R ; = iXiXiXiXiXiXiXiX",
"iXiXiXiXiXiXiXiX7 - - - : ; ; : : - - - 2 2 q = - q < 9 j w 0 0 0 0 G 6.i u I &.,.k k 9.- - : - ; ; ; = iXiXiXiXiXiXiXiX",
"iXiXiXiXiXiXiXiX= - - ; : ; ; ; - h.- - h b 2 h k k 9.q 9.d i G G 0 G i  .< - - - - - < < - - ; : : ; - = iXiXiXiXiXiXiX",
"iXiXiXiXiXiXiXiX, - : ; : ; - : : - - - h h 4 y 0.} x w y ;.0.x S 0 G x ' E h e 6 y f 2 2 - = : : : ; ; ; - iXiXiXiXiXiX",
"iXiXiXiXiXiXiX7 < ; - - - : - - - = - 9.h h 4 6 a ,.3 C 6 z Y z x i G Y z y 6 #.w w a j b - - - : ; ; ; ; = iXiXiXiXiXiX",
"iXiXiXiXiXiXiXiX= : ; - : ; - - - - - 9.E f 4 6 k 2 C C f e Y P v 0 z y y ..< 3 < e a 6 d - - - - ; ; ; ; ; - iXiXiXiXiX",
"iXiXiXiXiXiXiXiX= ; ; ; : ; - - ; - 9.< f c y M P P z Y Y M z M z x v Y -.;.;.c c E 4 a f - ; - ; ; : : : - ; iXiXiXiXiX",
"iXiXiXiXiXiXiXiX> - ; : ; ; - - - - = < f ;.z n m p n n n p Y 2.z S z Y M 2.M v z z P P f - ; - : ; ; ; ; ; - iXiXiXiXiX",
"iXiXiXiXiXiXiXiX7 - : - : - ; - = - - = f 4 z n 0 0 '.0 0 S M M Y S n M z G x S (.G S z 4 - ; ; : R : : ; R , iXiXiXiXiX",
"iXiXiXiXiXiXiXiXiX; : - ; - - - - = - - f 4 Y n 0 / N ` S z M M Y S n Y Y m 0 i i i G z 4 - ; ; ; : : R ; - w.iXiXiXiXiX",
"iXiXiXiXiXiXiXiX= = - - ; - - - - - - < h 4 M n 0 0 N 0 G _ 4 n.p 0 S P M S 0 ` ` i S _ e - ; ; R ; ; - : - iXiXiXiXiXiX",
"iXiXiXiXiXiXiX= - - - ; : ; - - - - - 2 h ;.4 _ 0 0 0 n z 2.Y M S N 0 Y Y 2.0 i ` 0 n M 2 ; ; - ; ; ; : - - iXiXiXiXiXiX",
"iXiXiXiXiXiXiXg - - - ; - - ; - ; - - q h ;.4 Y S S p S z 2.-.4 n 0 w P Y Y n.0 0 S v y < ; ; ; - ; ; ; - ; iXiXiXiXiXiX",
"iXiXiXiXiXiXiXiXq - - - ; - : : - - k k h ;.4 M p _ x S _ P 2.4 4 Y 4 -.Y p K p S n _ 4 h - - ; : ; ; : = < iXiXiXiXiXiX",
"iXiXiXiXiXiXiXiXiX- ; - ; ; ; : - k k E E c 2.M p z v z Y z K z z n n v z z n 2.p z M e j ; - - - : ; - < iXiXiXiXiXiXiX",
"iXiXiXiXiXiXiXiXiX- - - : : : ; : !.9.Q.E c y M n n 4 7.-.n._ m S 0 0 n z Y z z M M y f E 9.: ; : ; ; - iXiXiXiXiXiXiXiX",
"iXiXiXiXiXiXiXiX> - ; - ; ; ; ; - ; k b e _.y M i S E.t -.2.].].7.A.A.7./.7.4 z p Y P -.XX> ; ; : - - iXiXiXiXiXiXiXiXiX",
"iXiXiXiXiXiXiXiX> - ; - ; : ; : - ; = k q h y y 0 (.m -.k y w i v } w a c ,X-.n G y 4 a.Q.< : ; ; : - iXiXiXiXiXiXiXiXiX",
"iXiXiXiXiXiXiXiX8 - ; : ; - : - : - - - 9.h e y (.0 S n -.].].].7.2./.].7.p (.(.x y f [ 4 - - - ; - = iXiXiXiXiXiXiXiXiX",
"iXiXiXiXiXiXiXiX= - ; ; : ; - : : : ; ; k ;.c y Y G p p Y M p K n 3Xp M z x n (.Y y 9 b < : : ; : : iXiXiXiXiXiXiXiXiXiX",
"iXiXiXiXiXiXiXiX= - ; - : : : ; R : - = Q.4 ;.y 4 n Y p z v n n n n p v n n p P y q ; - ; ; ; ; ; - iXiXiXiXiXiXiXiXiXiX",
"iXiXiXiXiXiXiXiX, ; ; : ; - ; ; : : - - 2 ;.4 ;.y P v z x (.(.S m G x x x v z 4 f - ; - - ; - ; : - iXiXiXiXiXiXiXiXiXiX",
"iXiXiXiXiXiXiXiXX.= : : - ; : : ; - - = l c 4 4 e 4 M p x 0 i i N i 0 G x z 4 C.; 1 ; : ; - ; ; ; ; iXiXiXiXiXiXiXiXiXiX",
"iXiXiXiXiXiXiXiXX.- = ; ; ; - : ; - - = l >.I Q.4 e 4 M n S i i 0 N 0 G n 4 b - ; : ; ; ; : : ; - - iXiXiXiXiXiXiXiXiXiX",
"iXiXiXiXiXiXiXiXiX= - ; ; ; ; = - = 1 = C 6 ~ #.Q.-.;.e z n S G G G S v y h C ; - : ; ; ; - ; - - - iXiXiXiXiXiXiXiXiXiX",
"iXiXiXiXiXiXiXiXiX8 X.; ; = = = = = = , = >.a ~ f.u 4 -.4 y P z v a y e h E s ; ; ; ; - - ; - = = = iXiXiXiXiXiXiXiXiXiX",
"iXiXiXiXiXiXiXiXiX4X%Xw., = 5 5 = = = = = z. .~ H j ~ ~ c 6 y 4 j c 4 ;.f >.; ; - ; ; R - 3 Z , 8 iXiXiXiXiXiXiXiXiXiXiX",
"iXiXiXiXiX5X5X4X%X~.w.A 5 , , , 5 , = 5 , > u } H (.a w ~ w z z a M M 6  .>.- : ; - R iX8 3 > iXiXiXiXiXiXiXiXiXiXiXiXiX",
"iX5X5X4X4X%X%X~.w.w.A , = = , A , , , , j.g u ! O.{ H H H 0.{ } ~ ~ ~ y.y.u ; - - ; = iXiXiXiXiXiXiXiXiXiXiXiXiXiXiXiXiX",
"%X%X%X~.I.w.w.A 7 A , , , 1 , , , 5 , , , , u f.! O.w ~ H { O.H H B B f.y.u - - - - = iXiXiXiXiXiXiXiXiXiXiXiXiXiXiXiXiX",
"w.w.w.w.w.7 A , , , 5 , 5 = A 5 A , 5 , , 7 T f.~ H H O.H O.H O.O.H ~ f.y.y.- ; - ; - iXiXiXiXiXiXiXiXiXiXiXiXiXiXiXiXiX",
"A A A A A , j.A A , , , , 5 5 7 A , , , A g e.~ B H 1.J.{ H J.{ t.! ! H ! m.= - - = - - iXiXiXiXiXiXiXiXiXiXiXiXiXiXiXiX",
", , 5 A j.5 A , 5 A 5 5 5 1 = , 5 , 5 , , , ] >.~ { H x O.1.J.H T.H { ~ B 7 = = = ; ; = 1 = 8 iXiXiXiXiXiXiXiXiXiXiXiXiX",
", A j., j.j.A 5 5 5 5 , 5 , o.j.j., , j., , i.j ! { Z.Z.O.H 1.x J.O.~ H B = = = - ; = = = = = , 5 iXiXiXiXiXiXiXiXiXiXiX",
", j.A A A j.A A j., , , 5 , = , , , 5 A , , A y. .H H O.! H `.O.O.O.t.H u - = 1 = - ; 1 = = = - = 1 = , iXiXiXiXiXiXiXiX",
", , , A 7 A A j.A , , A , , 5 5 , A A , A A 7 &.! v w H q.J.`.H O.O.t.~ &.F - 5 = 1 = = = = = = = = = = = , iXiXiXiXiXiX",
"A , A A A A A , A A , , , 5 5 5 , , A A A , A Z O.O.`.H ~ u i q.H u I u V e.- 5 1 ; ; o.= = = = = 1 1 = = = = , iXiXiXiX",
"A , A A A , A | 7 A j., A | 5 , A A A A A A A g 0.} J.O.x u T.`.J.J.~ u t.! < , = ; o.= 5 5 , , = = - = = 5 = = iXiXiXiX"
};
