/* XPM */
static char *wen203a[] = {
/* columns rows colors chars-per-pixel */
"60 60 256 2 ",
"   c black",
".  c #800000",
"X  c #008000",
"o  c #808000",
"O  c navy",
"+  c #800080",
"@  c #008080",
"#  c #C0C0C0",
"$  c #C0DCC0",
"%  c #A4C8F0",
"&  c white",
"*  c black",
"=  c #213129",
"-  c #213121",
";  c #182921",
":  c #102918",
">  c #313931",
",  c #293131",
"<  c #313929",
"1  c #183129",
"2  c #4A4231",
"3  c #394239",
"4  c #84634A",
"5  c #213131",
"6  c #846B5A",
"7  c #313939",
"8  c #293931",
"9  c #423931",
"0  c #BD947B",
"q  c #313129",
"w  c #A58473",
"e  c #735A4A",
"r  c #6B635A",
"t  c #4A4239",
"y  c #846B52",
"u  c #9C8C7B",
"i  c #B59C84",
"p  c #AD7B63",
"a  c #947363",
"s  c #635A52",
"d  c #634A42",
"f  c #6B5242",
"g  c #312931",
"h  c #634A39",
"j  c #7B6452",
"k  c #4A3929",
"l  c #736B63",
"z  c #9C7B63",
"x  c #AD8C7B",
"c  c #735242",
"v  c #A5846B",
"b  c #5A4A39",
"n  c #AD7A6B",
"m  c #BD846B",
"M  c #9C6B52",
"N  c #C69C84",
"B  c #A59C94",
"V  c #846B63",
"C  c #4A4A39",
"Z  c gray26",
"A  c #293139",
"S  c #B58473",
"D  c #5A5A52",
"F  c #4A4B42",
"G  c #B5947B",
"H  c #B5A594",
"J  c #525242",
"K  c #A5735A",
"L  c #6B524A",
"P  c #946B5A",
"I  c #947B73",
"U  c gray39",
"Y  c #9C735A",
"T  c #735A52",
"R  c #102921",
"E  c #634231",
"W  c #CE9C8C",
"Q  c #CEA594",
"!  c #B5A59C",
"~  c #A59484",
"^  c #316B94",
"/  c #C69C7B",
"(  c #EFE7E7",
")  c #316384",
"_  c #9C7363",
"`  c #C69C8C",
"'  c #6B5239",
"]  c #5A4A4A",
"[  c #5A4231",
"{  c #AD9C8C",
"}  c #AD9484",
"|  c #293939",
" . c #8C7B6B",
".. c #5A4A42",
"X. c #393942",
"o. c #182929",
"O. c #BDADA5",
"+. c #4A524A",
"@. c #DEDED6",
"#. c #8C736B",
"$. c #D6D6CE",
"%. c #E7E7DE",
"&. c #7B6B63",
"*. c #929C9C",
"=. c #293A43",
"-. c #845A42",
";. c #7B5A42",
":. c #947B7B",
">. c #8C7D73",
",. c #634A4A",
"<. c #CE9C84",
"1. c #CEAD9C",
"2. c #9C634A",
"3. c #7B736B",
"4. c #848C8C",
"5. c gray29",
"6. c #BD948C",
"7. c #804A42",
"8. c gray32",
"9. c #313121",
"0. c #9C7B6B",
"q. c #C6BDB5",
"w. c #313942",
"e. c #8C847B",
"r. c #E7E7E7",
"t. c #B5ADA5",
"y. c #94948C",
"u. c #8C9494",
"i. c #393939",
"p. c #C6A594",
"a. c #523929",
"s. c #B5BFBD",
"d. c #D6AD9C",
"f. c #A5948C",
"g. c #5A6364",
"h. c #312921",
"j. c #21313B",
"k. c #D8BDA5",
"l. c gray71",
"z. c #846B6B",
"x. c #CECEC6",
"c. c gray87",
"v. c #BD8C73",
"b. c gray45",
"n. c #9C6352",
"m. c #847B7B",
"M. c #D6B59C",
"N. c #636A6B",
"B. c #CECECE",
"V. c #7B7B7B",
"C. c #5A5242",
"Z. c #BDADAD",
"A. c #9C5249",
"S. c #394A52",
"D. c #C68C73",
"F. c #D6B5A5",
"G. c #4A312F",
"H. c #A59C9C",
"J. c #C6B5AD",
"K. c #7B7373",
"L. c #525A63",
"P. c #7B8384",
"I. c #31394A",
"U. c gray97",
"Y. c #C6C6C6",
"T. c #CEBDAD",
"R. c #A5A5A5",
"E. c #734731",
"W. c #C6D6D6",
"Q. c #6B5231",
"!. c #393121",
"~. c #39424A",
"^. c #CEC6BD",
"/. c #7B4939",
"(. c #B59473",
"). c #295273",
"_. c #735239",
"`. c #C6ADA5",
"'. c #BD9473",
"]. c #874539",
"[. c #A5ADAD",
"{. c #182121",
"}. c #213F57",
"|. c #4A5E67",
" X c #DEC6AD",
".X c #42525A",
"XX c #633929",
"oX c #C6CECE",
"OX c #734A39",
"+X c #315273",
"@X c #D6CEBD",
"#X c #D6C6B5",
"$X c #29597B",
"%X c #4A4252",
"&X c #EFEFEF",
"*X c #B5B5AD",
"=X c #636777",
"-X c #425263",
";X c #717986",
":X c #426B8C",
">X c #7B8494",
",X c #7B4229",
"<X c #BD848C",
"1X c #5A3121",
"2X c #8CA5AD",
"3X c #B5737B",
"4X c #5A4263",
"5X c #634A6B",
"6X c #526373",
"7X c #4A6B84",
"8X c black",
"9X c #800000",
"0X c #008000",
"qX c #808000",
"wX c navy",
"eX c #800080",
"rX c #008080",
"tX c #C0C0C0",
"yX c #C0DCC0",
"uX c #A4C8F0",
"iX c #B3353F",
"pX c #4F171C",
"aX c #ECBDC0",
"sX c black",
"dX c black",
"fX c black",
"gX c black",
"hX c black",
"jX c black",
"kX c black",
"lX c black",
"zX c black",
"xX c black",
"cX c black",
"vX c black",
"bX c black",
"nX c black",
"mX c black",
"MX c black",
"NX c black",
"BX c black",
"VX c black",
"CX c black",
"ZX c black",
"AX c black",
"SX c black",
"DX c #FFFBF0",
"FX c #A0A0A4",
"GX c #808080",
"HX c red",
"JX c green",
"KX c yellow",
"LX c blue",
"PX c magenta",
"IX c cyan",
"UX c white",
/* pixels */
"iXiXiXiXiXiXiXiXiXiXiXiXiXiXiXiXiXiXiXiXiXiXiXiXiXiXiXiXiXiXiXiXiXiXiXiXiXiXiXiXiXiXiXiXiXiXiXiXiXiXiXiXiXiXiXiXiXiXiXiX",
"iXiXiXiXiXiXiXiXiXiXiXiXiXiXiXiXiXiXiXiXiXiXiXiXiXiXiXiXiXiXiXiXiXiXiXiXiXiXiXiXiXiXiXiXiXiXiXiXiXiXiXiXiXiXiXiXiXiXiXiX",
"iXiXiXiXiXiXiXiXiXiXiXiXiXiXiXiXiXiXiXiXiXiXiXiXiX5.7 iXiXiXiXiXiXiXiXiXiXiXiXiXiXiXiXiXiXiXiXiXiXiXiXiXiXiXiXiXiXiXiXiX",
"iXiXiXiXiXiXiXiXiXiXiXiXiXiXiXiXiXiXiXiXiX> = - - ; - - ; - - U iXiXiXiXiXiXiXiXiXiXiXiXiXiXiXiXiXiXiXiXiXiXiXiXiXiXiXiX",
"iXiXiXiXiXiXiXiXiXiXiXiXiXiXiXiXiXiXiXiX= : : : : - : : : : : ; : : - - = iXiXiXiXiXiXiXiXiXiXiXiXiXiXiXiXiXiXiXiXiXiXiX",
"iXiXiXiXiXiXiXiXiXiXiXiXiXiXiXiXiXiXiX; ; ; : : : : : : : : ; : : : : : - - ; < 8 8 < iXiXiXiX7 S.iXiXiXiXiXiXiXiXiXiXiX",
"iXiXiXiXiXiXiXiXiXiXiXiXiXiXiXiXiXiX- : : ; : : : : : : : : : : : : : : : : : ; - : - | iXiX= - = 8 iXiXiXiXiXiXiXiXiXiX",
"iXiXiXiXiXiXiXiXiXiXiXiXiXiXiXiXiXiX; ; : : : ; : : ; : : : ; ; : ; : : : R : : : : - 8 , = - = = = iXiXiXiXiXiXiXiXiXiX",
"iXiXiXiXiXiXiXiXiXiXiXiXiXiXiXiXiXiX; ; : : : : : : : : : : : : : : : : ; : : : ; : ; : - - ; - - - - iXiXiXiXiXiXiXiXiX",
"iXiXiXiXiXiXiXiXiXiXiXiXiXiXiXiXiXiX; : : : : : : : : : : : : : : : : : : ; h.: : ; : : - ; ; : - = - 7 iXiXiXiXiXiXiXiX",
"iXiXiXiXiXiXiXiXiXiXiXiXiXiXiXiXiXiX- : ; : : : : : : : : : : : : : : : ; : : : : ; ; : : ; ; - ; ; - = > iXiXiXiXiXiXiX",
"iXiXiXiXiXiXiXiXiXiXiXiXiXiXiXiXiXiX; : : : : : : : : : : : : : : : : : : : : : ; : : : ; : ; ; - ; = = = iXiXiXiXiXiXiX",
"iXiXiXiXiXiXiXiXiXiXiXiXiXiXiXiXiX; : : : R : : : : : : : : : : : : : : : : : : : : : ; : ; : = - - , = - - iXiXiXiXiXiX",
"iXiXiXiXiXiXiXiXiXiXiXiXiXiXiXiX; : R : : ; ; ; ; : : : : ; : : : : : : : : : : : R : : : : ; o.; = w.= = = 8 iXiXiXiXiX",
"iXiXiXiXiXiXiXiXiXiXiXiXiXiXiX< - : : : : - : - : : : h.: - - : : : : : : : : : : R : : ; : - - o.5 , , - - = iXiXiXiXiX",
"iXiXiXiXiXiXiXiXiXiXiXiXiXiXiX- : ; : : h.k k 2 h.h.9.k 9.9.9.: : : : ; ; : : : {.: : : - - - = - ; = = - = h.> iXiXiXiX",
"iXiXiXiXiXiXiXiXiXiXiXiXiXiX, - - : ; - k E [ 4 k !.2 k h E 2 h.9.- : : ; : : : : : : ; : : ; ; : ; - - - - > 8 3 iXiXiX",
"iXiXiXiXiXiXiXiXiXiXiXiXiXiX- - : : : h.E y y P y c j f c c c e f 9.- : : : : : ; : : : : {.- ; : : - = - - , = X.iXiXiX",
"iXiXiXiXiXiXiXiXiXiXiXiXiX= - - - : : !.e P z v v a 6 y 6 a z a 6 f 2 9.: : : : : : : R ; : - : - : - - - , > - X.iXiXiX",
"iXiXiXiXiXiXiXiXiXiXiXiX5.- - - - : h.[ y z v w w w w w  .0.w w 0.6 j 2 q - : - ; - : : - : - ; ; - : - - - = < iXiXiXiX",
"iXiXiXiXiXiXiXiXiXiXiXiX- - - ; : : : f M v x i H H } x x w x ~ u w a e 2 9.9.- : : : : : : : ; : : - - - - - 8 iXiXiXiX",
"iXiXiXiXiXiXiXiXiXiXiX- - : : - : : h.4 a  . .u ~ { { } i i } } x w #.s < = q q h.: : ; ; : : - : - ; - - - - iXiXiXiXiX",
"iXiXiXiXiXiXiXiXiXiX8 - : : : : : : k 4 6 V  .l r ] ,.V ~ } } x w s 3 < < C C 3 < = : : : - : ; ; : - - = - = > iXiXiXiX",
"iXiXiXiXiX> 3 iXiX= : : : : : : : : d y y w x ~ w y y 6 w x x w 6 L h E T j j e t : : R ; ; : ; ; ; ; ; ; - h.= 7 iXiXiX",
"iXiXiXiX3 - - - : : : : ; : : : : : 4 j 4 j T r s ..f 4 z w u  .4 h 2 ] s ] b h t = - : : : ; ; - - - - - - ; 7 8 iXiXiX",
"iXiXiX7 = - - - : : : : : : : - : : 6 y ' q = : : - d E P i H w c k T < ; : - - k 2 - : : : : - R - ; - - - - < > iXiXiX",
"iXiXiX= - = - - : - : : : : : : : - y 6 h !.E 3 h.l f y v H `.} j e V 4.; < 9.- < h 2 : : - - ; - - - - ; = = < iXiXiXiX",
"iXiXiX3 - : : = : : : : : : : - : : 2.M v y 6 a 6 y y a i 1.F.{ z a 6 V e j e h ' f a.; - : - - - - - - - = > iXiXiXiXiX",
"iXiXiXZ - - - - : ; ; : : : - - ; - P n G G v P z (.` ` p.1.p.i x i i z ;.c 4 P 6 e [ - ; - - ; ; ; - = 8.iXiXiXiXiXiXiX",
"iXiXiXiX- - - - - : : : - - : ; - - Y n i ` N ` Q F.F.F.6.p.6.G x H H ` 6.G S x v e h - - - - - - - , 8 Z iXiXiXiXiXiXiX",
"iXiXiXiX= > - - : ; : : ; : : : - - Y n i F.k.#X#XT.0 6.i 6.` x a w 6.1.1.1.i i 0.e a.- - - - - = = 8 iXiXiXiXiXiXiXiXiX",
"iXiXiXiXiXiX- = - - - : - ; - ; - - P n ` F.#X#X1.w S 6.i 1.p.i a w y i 1.F.`.H v e 2 - - ; - = > X.iXiXiXiXiXiXiXiXiXiX",
"iXiXiXiXiXiX3 < = - h.- = - : : ; q y z G p.p.H x 4 v x w w x V 6 6 f w i p.6.G z e b 9 h.- = = , iXiXiXiXiXiXiXiXiXiXiX",
"iXiXiXiXiXiXiXiX7 g > > - - - : - - e y z G G w y 4 v h !.c f t 9.E e ;.x G w z M d 2 - - ; = = iXiXiXiXiXiXiXiXiXiXiXiX",
"iXiXiXiXiXiXiXiXiXiXiX= = : : : - - t c 4 y y ' k v w w w u ;.y y 4 e c 4 a P 4 f t = - 3 = = iXiXiXiXiXiXiXiXiXiXiXiXiX",
"iXiXiXiXiXiXiXiXiXiXiX= - : ; - - : - d c ' k h P _ x x { x z v w a j e 2 2 d C 2 9 = < < > iXiXiXiXiXiXiXiXiXiXiXiXiXiX",
"iXiXiXiXiXiXiXiXiXiXiXZ 7 - - - - : X.d ;.P 6 f c E./.7.7.A.P A.7.' h h b h h 2 2 2 = = Z iXiXiXiXiXiXiXiXiXiXiXiXiXiXiX",
"iXiXiXiXiXiXiXiXiXiXiXiXiX5.- - : - = t c z w P a q w M Y x 4 I c E 2 - h 6 6 f t > = < iXiXiXiXiXiXiXiXiXiXiXiXiXiXiXiX",
"iXiXiXiXiXiXiXiXiXiXiXiXiXiX= - - - N.D f y z w x A.n <XH x.J.q.Z.>.' 4 a 6 e b C 8 b.iXiXiXiXiXiXiXiXiXiXiXiXiXiXiXiXiX",
"iXiXiXiXiXiXiXiXiXiXiXiXiXiXF = iXiXX.g.J e y v x 0.A.<X<X<X3X3Xn A.7.6 6 y d 2 Z iXiXiXiXiXiXiXiXiXiXiXiXiXiXiXiXiXiXiX",
"iXiXiXiXiXiXiXiXiXiXiXiXiXiXiXiXiXiXiXiXiXd e z w w I P w 3X3Xw 6 e e 6 j L t 3 7 iXiXiXiXiXiXiXiXiXiXiXiXiXiXiXiXiXiXiX",
"iXiXiXiXiXiXiXiXiXiXiXiXiXiXiXiXiXiXiXiXiXiXd y 0.u a 0.y e L L e e j e L t 3 t = +XiXiXiXiXiXiXiXiXiXiXiXiXiXiXiXiXiXiX",
"iXiXiXiXiXiXiXiXiXiXiXiXiXiXiXiXiXiXiXiX+X8.C.f a w i x 0.a a a a a a L J 3 t t = ).+XiXiXiXiXiXiXiXiXiXiXiXiXiXiXiXiXiX",
"iXiXiXiXiXiXiXiXiXiXiXiXiXiXiXiXiXiX:X$X$X+Xf C e v 6.H p.6.H 6.i w j ..Z 2 b t =.+X).+XiXiXiXiXiXiXiXiXiXiXiXiXiXiXiXiX",
"iXiXiXiXiXiXiXiXiXiXiXiXiXiXiXiXiX) ) ) ) ).e d t a } H 1.p.p.6.i 6 ,.3 2 b b 2 }.).+X).) iXiXiXiXiXiXiXiXiXiXiXiXiXiXiX",
"iXiXiXiXiXiXiXiXiXiXiXiXiXiXiXiX) ) ) ) $X}.f e d C 6 w G { i w V ..i.2 b h b < ).).$X) ) iXiXiXiXiXiXiXiXiXiXiXiXiXiXiX",
"iXiXiXiXiXiXiXiXiXiXiXiXiXiX) ) ) ) ) ) j.5 d e c h 2 ,.V w I ,.F > 9 2 b b 2 5 ).$X) ^ :X^ iXiXiXiXiXiXiXiXiXiXiXiXiXiX",
"iXiXiXiXiXiXiXiXiXiXiXiX) ) ) ) ) ) ) $Xo.- h 4 4 f h 2 < > > q < G.2 [ b [ = }.$X) ^ ^ ^ ^ iXiXiXiXiXiXiXiXiXiXiXiXiXiX",
"iXiXiXiXiXiXiX5 5 }.) ) ) ) $X) ) ) ) ).; - h 4 4 ;.c f [ k 2 k 2 2 2 b b t = }.) ^ ^ ^ :X^ +X= iXiXiXiXiXiXiXiXiXiXiXiX",
"iXiXiXiX= - ; ).) ) ) $X) ) ) ) ) ) $X}.; 2 h e 4 ;.4 e ;.c ' [ [ [ [ [ t 8 }.).) ^ ^ ^ ^ ^ ^ = < iXiXiXiXiXiXiXiXiXiXiX",
"iX= - - - : : : j.).) ) ) ) ) ) ) ) ).}.: d f 4 ;.;.;.4 4 4 ;.c f d E b t - ).) ^ ^ ^ ^ ^ ^ ^ +X= = = iXiXiXiXiXiXiXiXiX",
"- : - ; : ; : : : : : o.j.}.+X) ) ) ).}.: e c ;.4 -.;.;.4 4 4 e c c f h q 5 ) ) ^ ^ ^ ^ ^ ^ ^ ^ = ; - = = - , iXiXiXiXiX",
"; : : : : : : : : : : : : : : : }.$X}.}.< e 4 4 4 4 ;.;.;.;.;.4 4 4 c f < ).^ ^ ^ ^ ^ ^ ^ ^ ^ ^ 5 ; : - - - = = = iXiXiX",
"- : : : : ; : ; : : : ; : : : ; : o.).) < 4 y y 4 4 4 ;.c c ;.4 y 4 4 b > ) ^ ^ ^ ^ ^ ^ ^ ^ ^ ^ ) ; - - - - 1 = 1 - = = ",
"- - : : : : : ; : : : : : : : : : : =.) S.j 6 P 4 M y ;././.;.y M 4 e b +X) ^ ^ ^ ^ ^ ^ ^ ^ ^ ^ ^ j.; ; ; - - - - : = - ",
": : : : : : : ; : : : : - - : : : ; j.$X7 a 0.v P z Y M M 2.y M z P j ,.) ) ) ) ^ ^ ^ ^ ^ ^ ^ ^ ) }.- ; ; ; - ; - = - - ",
": : : : : : : - : : : ; : ; ; : : - j.^ +Xw w 0.v v v v v v Y z 0.z a ) ).}.o.; - ; ; ; 1 1 1 ; ; : ; ; o.o.; ; - ; 1 ; ",
": : : : : ; : : {.: ; : - - : : : = ).:X) w v v Y (.w x i i P w v  .:X) ).}.- : : : R - ; ; ; - : : : ; : R : ; ; ; ; ; ",
": : : : : - : : ; ; ; : : ; : : : : }.^ ^ w v n x w v x G w P x 0.) ^ :X^ }.5 ; ; : : : ; : : {.; : R ; ; ; ; ; - ; ; - ",
": : : : : : - : : : ; : ; - : {.: - ).) :Xu x S x x n P y 6 w w 7X:X^ ^ ) ).= : - ; - R : : R ; {.; ; - ; ; ; - ; ; - - "
};
