/* XPM */
static char *bet203a[] = {
/* columns rows colors chars-per-pixel */
"60 60 256 2 ",
"   c black",
".  c #800000",
"X  c #008000",
"o  c #808000",
"O  c navy",
"+  c #800080",
"@  c #008080",
"#  c #C0C0C0",
"$  c #C0DCC0",
"%  c #A4C8F0",
"&  c white",
"*  c black",
"=  c #213129",
"-  c #213121",
";  c #182921",
":  c #102918",
">  c #313931",
",  c #293131",
"<  c #313929",
"1  c #183129",
"2  c #4A4231",
"3  c #394239",
"4  c #84634A",
"5  c #213131",
"6  c #846B5A",
"7  c #313939",
"8  c #293931",
"9  c #423931",
"0  c #BD947B",
"q  c #313129",
"w  c #A58473",
"e  c #735A4A",
"r  c #6B635A",
"t  c #4A4239",
"y  c #846B52",
"u  c #9C8C7B",
"i  c #B59C84",
"p  c #AD7B63",
"a  c #947363",
"s  c #635A52",
"d  c #634A42",
"f  c #6B5242",
"g  c #312931",
"h  c #634A39",
"j  c #7B6452",
"k  c #4A3929",
"l  c #736B63",
"z  c #9C7B63",
"x  c #AD8C7B",
"c  c #735242",
"v  c #A5846B",
"b  c #5A4A39",
"n  c #AD7A6B",
"m  c #BD846B",
"M  c #9C6B52",
"N  c #C69C84",
"B  c #A59C94",
"V  c #846B63",
"C  c #4A4A39",
"Z  c gray26",
"A  c #293139",
"S  c #B58473",
"D  c #5A5A52",
"F  c #4A4B42",
"G  c #B5947B",
"H  c #B5A594",
"J  c #525242",
"K  c #A5735A",
"L  c #6B524A",
"P  c #946B5A",
"I  c #947B73",
"U  c gray39",
"Y  c #9C735A",
"T  c #735A52",
"R  c #102921",
"E  c #634231",
"W  c #CE9C8C",
"Q  c #CEA594",
"!  c #B5A59C",
"~  c #A59484",
"^  c #316B94",
"/  c #C69C7B",
"(  c #EFE7E7",
")  c #316384",
"_  c #9C7363",
"`  c #C69C8C",
"'  c #6B5239",
"]  c #5A4A4A",
"[  c #5A4231",
"{  c #AD9C8C",
"}  c #AD9484",
"|  c #293939",
" . c #8C7B6B",
".. c #5A4A42",
"X. c #393942",
"o. c #182929",
"O. c #BDADA5",
"+. c #4A524A",
"@. c #DEDED6",
"#. c #8C736B",
"$. c #D6D6CE",
"%. c #E7E7DE",
"&. c #7B6B63",
"*. c #929C9C",
"=. c #293A43",
"-. c #845A42",
";. c #7B5A42",
":. c #947B7B",
">. c #8C7D73",
",. c #634A4A",
"<. c #CE9C84",
"1. c #CEAD9C",
"2. c #9C634A",
"3. c #7B736B",
"4. c #848C8C",
"5. c gray29",
"6. c #BD948C",
"7. c #804A42",
"8. c gray32",
"9. c #313121",
"0. c #9C7B6B",
"q. c #C6BDB5",
"w. c #313942",
"e. c #8C847B",
"r. c #E7E7E7",
"t. c #B5ADA5",
"y. c #94948C",
"u. c #8C9494",
"i. c #393939",
"p. c #C6A594",
"a. c #523929",
"s. c #B5BFBD",
"d. c #D6AD9C",
"f. c #A5948C",
"g. c #5A6364",
"h. c #312921",
"j. c #21313B",
"k. c #D8BDA5",
"l. c gray71",
"z. c #846B6B",
"x. c #CECEC6",
"c. c gray87",
"v. c #BD8C73",
"b. c gray45",
"n. c #9C6352",
"m. c #847B7B",
"M. c #D6B59C",
"N. c #636A6B",
"B. c #CECECE",
"V. c #7B7B7B",
"C. c #5A5242",
"Z. c #BDADAD",
"A. c #9C5249",
"S. c #394A52",
"D. c #C68C73",
"F. c #D6B5A5",
"G. c #4A312F",
"H. c #A59C9C",
"J. c #C6B5AD",
"K. c #7B7373",
"L. c #525A63",
"P. c #7B8384",
"I. c #31394A",
"U. c gray97",
"Y. c #C6C6C6",
"T. c #CEBDAD",
"R. c #A5A5A5",
"E. c #734731",
"W. c #C6D6D6",
"Q. c #6B5231",
"!. c #393121",
"~. c #39424A",
"^. c #CEC6BD",
"/. c #7B4939",
"(. c #B59473",
"). c #295273",
"_. c #735239",
"`. c #C6ADA5",
"'. c #BD9473",
"]. c #874539",
"[. c #A5ADAD",
"{. c #182121",
"}. c #213F57",
"|. c #4A5E67",
" X c #DEC6AD",
".X c #42525A",
"XX c #633929",
"oX c #C6CECE",
"OX c #734A39",
"+X c #315273",
"@X c #D6CEBD",
"#X c #D6C6B5",
"$X c #29597B",
"%X c #4A4252",
"&X c #EFEFEF",
"*X c #B5B5AD",
"=X c #636777",
"-X c #425263",
";X c #717986",
":X c #426B8C",
">X c #7B8494",
",X c #7B4229",
"<X c #BD848C",
"1X c #5A3121",
"2X c #8CA5AD",
"3X c #B5737B",
"4X c #5A4263",
"5X c #634A6B",
"6X c #526373",
"7X c #4A6B84",
"8X c black",
"9X c #800000",
"0X c #008000",
"qX c #808000",
"wX c navy",
"eX c #800080",
"rX c #008080",
"tX c #C0C0C0",
"yX c #C0DCC0",
"uX c #A4C8F0",
"iX c #B3353F",
"pX c #4F171C",
"aX c #ECBDC0",
"sX c black",
"dX c black",
"fX c black",
"gX c black",
"hX c black",
"jX c black",
"kX c black",
"lX c black",
"zX c black",
"xX c black",
"cX c black",
"vX c black",
"bX c black",
"nX c black",
"mX c black",
"MX c black",
"NX c black",
"BX c black",
"VX c black",
"CX c black",
"ZX c black",
"AX c black",
"SX c black",
"DX c #FFFBF0",
"FX c #A0A0A4",
"GX c #808080",
"HX c red",
"JX c green",
"KX c yellow",
"LX c blue",
"PX c magenta",
"IX c cyan",
"UX c white",
/* pixels */
"iXiXiXiXiXiXiXiXiXiXiXiXiXiXiXiXiXiXiXiXiXiXiXiXiXiXiXiXiXiXiXiXiXiXiXiXiXiXiXiXiXiXiXiXiXiXiXiXiXiXiXiXiXiXiXiXiXiXiXiX",
"iXiXiXiXiXiXiXiXiXiXiXiXiXiXiXiXiXiXiXiXiXiXiXiXiXiXiXiXiXiXiXiXiXiXiXiXiXiXiXiXiXiXiXiXiXiXiXiXiXiXiXiXiXiXiXiXiXiXiXiX",
"iXiXiXiXiXiXiXiXiXiXiXiXiXiXiXiXiXiXiXiXiXiXiXiXiXiX.X|.I.w.I..XiXiXiXiXiXiXiXiXiXiXiXiXiXiXiXiXiXiXiXiXiXiXiXiXiXiXiXiX",
"iXiXiXiXiXiXiXiXiXiXiXiXiXiXiXiXiXiXiXiXiXiXiXL.w.7 8 > w., = 7 7 ~..XiXiXiXiXiXiXiXiXiXiXiXiXiXiXiXiXiXiXiXiXiXiXiXiXiX",
"iXiXiXiXiXiXiXiXiXiXiXiXiXiXiXiXiXiXiXiXiXiX~.| , = = {.= - , = , 5 8 L.iXiXiXiXiXiXiXiXiXiXiXiXiXiXiXiXiXiXiXiXiXiXiXiX",
"iXiXiXiXiXiXiXiXiXiXiXiXiXiXiXiXiXiXiXiXw.| ~.| | 1 = ; ; - R = = = 5 = 7 iXiXiXiXiXiXiXiXiXiXiXiXiXiXiXiXiXiXiXiXiXiXiX",
"iXiXiXiXiXiXiXiXiXiXiXiXiXiXiXiXiXiXiXiX| w.| I.8 o.= = ; - = = 1 = = ; = = ~.iXiXiXiXiXiXiXiXiXiXiXiXiXiXiXiXiXiXiXiXiX",
"iXiXiXiXiXiXiXiXiXiXiXiXiXiXiXiXiXiXiXiX| > w.| 7 = o.- - = - = = A , = = = = X.iXiXiXiXiXiXiXiXiXiXiXiXiXiXiXiXiXiXiXiX",
"iXiXiXiXiXiXiXiXiXiXiXiXiXiXiXiXiXiXiXiX< = = 8 = | = = = = = - = ; o.- 5 = o.= w.iXiXiXiXiXiXiXiXiXiXiXiXiXiXiXiXiXiXiX",
"iXiXiXiXiXiXiXiXiXiXiXiXiXiXiXiXiXiXiX5 ; - ; : - R ; 1 = ; = = ; 1 - o.; ; ; = = = iXiXiXiXiXiXiXiXiXiXiXiXiXiXiXiXiXiX",
"iXiXiXiXiXiXiXiXiXiXiXiXiXiXiXiXiXiX= ; ; ; ; ; o.- - ; ; o.- : ; = 5 o.1 = o.= - 5 A iXiXiXiXiXiXiXiXiXiXiXiXiXiXiXiXiX",
"iXiXiXiXiXiXiXiXiXiXiXiXiXiXiXiXiX= 1 - ; = ; = - ; o.; ; : {.; ; = - ; - - ; = 5 = o.> iXiXiXiXiXiXiXiXiXiXiXiXiXiXiXiX",
"iXiXiXiXiXiXiXiXiXiXiXiXiXiXiXiX= ; - ; = = g 3 7 5 = ; ; - ; R R ; ; - o.; o.1 , > ; , iXiXiXiXiXiXiXiXiXiXiXiXiXiXiXiX",
"iXiXiXiXiXiXiXiXiXiXiXiXiXiXiX, ; R ; - = ] ,.D X.= , = - ; ; ; ; ; ; R : 1 o.; o.g , ; , | iXiXiXiXiXiXiXiXiXiXiXiXiXiX",
"iXiXiXiXiXiXiXiXiXiXiXiXiXiX, ; R ; ; = s z.&.s F X.= 5 o.o.R R ; ; ; ; R ; R o.; ; = o.= 5 w.iXiXiXiXiXiXiXiXiXiXiXiXiX",
"iXiXiXiXiXiXiXiXiXiXiXiXiXS.- R - ; = ] :.:.>.T ..Z 8 A o.; ; R ; - o.R ; R {.; o.o.; ; = 8 | iXiXiXiXiXiXiXiXiXiXiXiXiX",
"iXiXiXiXiXiXiXiXiXiXiXiXiX, = R , ; q :.f.B :.V d t , > , ; ; o.R ; ; R ; ; ; ; ; o.- 5 = ; , I.iXiXiXiXiXiXiXiXiXiXiXiX",
"iXiXiXiXiXiXiXiXiXiXiXiX, ; - ; - - s f.H.B u a T b 3 = - - ; ; ; ; ; ; {.- ; ; R ; ; {.; ; 1 iXiXiXiXiXiXiXiXiXiXiXiXiX",
"iXiXiXiXiXiXiXiXiXiXiX~.< = ; - ; = :.f.B f.I #.j d 2 > = ; 1 ; - - ; ; ; ; ; - : ; ; ; ; ; = | iXiXiXiXiXiXiXiXiXiXiXiX",
"iXiXiXiXiXiXiXiXiXiXiX> = ; {.; = = B f.f.{ w a y f h [ > = - - = ; {.- ; - ; - 1 ; ; ; ; ; o.1 I.iXiXiXiXiXiXiXiXiXiXiX",
"iXiXiXiXiXiXiXiXiXiX=.- = ; - ; ; > H.{ } w #.V y y c f b 2 - h.- R ; - : - : - ; ; ; R : ; ; ; = S.iXiXiXiXiXiXiXiXiXiX",
"iXiXiXiXiXiXiXiXiXI.= , - ; ; ; - J B z.r D 8.3 J 6 P y a d 2 > > = 1 - : ; - : ; : ; : R o.o.1 = = w.iXiXiXiXiXiXiXiXiX",
"iXiXiXiXiXiXiXiXS.8 = 7 = ; - - - &.B q.~ #.C.J d e z z a T C.9 < > 3 s q ; ; ; ; ; ; ; ; - ; ; 1 = = iXiXiXiXiXiXiXiXiX",
"iXiXiXiXiXiXiXiX> 8 = , o.- - - - I O.H.#.d 2 h j P v z a c E k < 2 d h f 2 - - ; ; ; - ; ; ; ; ; - = | iXiXiXiXiXiXiXiX",
"iXiXiXiXiXiXiX.X= , = = - - ; o.; { H.:.D = Z q q a 6._ a [ k q q !.3 t [ 2 k - : R : : ; : ; : : ; ; , iXiXiXiXiXiXiXiX",
"iXiXiXiXiXiXiXS.= = , o.= - ; - - ! B 3 s.= X.> g :.`.v y 2 < q q = |.> h.a.[ 9.; ; : ; ; - - o.; - - = iXiXiXiXiXiXiXiX",
"iXiXiXiXiXiXiX7 = = 8 = = - - - = t.t.R.=X, X.r t 6 i z 2.E ,.r ] = = b., 2 [ k h.; : ; 1 ; ; ; - ; - - w.iXiXiXiXiXiXiX",
"iXiXiXiXiXiXiX7 = = = = ; ; ; - 6 { I B l 2 9 d c i S _ M 7.h ..2 g ~.~.d e f E q ; ; ; ; ; R ; - ; = = 8 iXiXiXiXiXiXiX",
"iXiXiXiXiXiXiXS.8 = = - - ; - - { G v _ y 4 4 z i p.m n K 2.-.c c j y 6 6 j c E k - ; : ; ; R ; ; ; ; = , iXiXiXiXiXiXiX",
"iXiXiXiXiXiX~.~., = = = - - - = ! 0 S n z n w 6.T.1.p n K Y M v M 4 y y a P 4 ' a.9.; ; ; - {.; - ; = h.= A iXiXiXiXiXiX",
"iXiXiXiXiXiXw.X.= = - - - - - ..T.p.0 S 0 S x 6.p.G p K 2.2.Y w w v z x x n 4 c a.q ; 1 ; ; ; - - ; = ; ; ; iXiXiXiXiXiX",
"iXiXiXiXiXiXiX7 8 = = = - - - L T.`.p.0 G n P } 6.S S i 2.-.P w } i <X<Xx Y 4 E.[ h.; ; ; - - ; : ; - ; - ; iXiXiXiXiXiX",
"iXiXiXiXiXiXiXS., 5 = = = ; - C T.q.p.0 _ 4 i ~ { G z _ v Y -.0.w i 6.i x Y A.E.k = - - - : ; ; ; ; ; ; ; = iXiXiXiXiXiX",
"iXiXiXiXiXiXiXiX> = = = = j >.C `.`.H w 6 I ! 9 9.a 4 9 - - OXa a 0.w n _ A./.E q q ~ - ; R ; ; - ; ; - - 1 iXiXiXiXiXiX",
"iXiXiXiXiXiXiXiX~., 5 = = 3 ~ C 6.} ~ B I ! ! { V e c  .:.#.c w I V y 4 7./.E 2 q q q = R ; - : - ; ; ; - =.iXiXiXiXiXiX",
"iXiXiXiXiXiXiXiXiX7 = 5 = - > f I w B O.} T.! { a e e 6 V V v v _ 6 e E E [ k q < q 9.; - ; ; R ; ; ; - 5 iXiXiXiXiXiXiX",
"iXiXiXiXiXiXiXiXiXiXI.= 1 ; = C a w ! J.I J.H I 6 e 4 4 a 6 a P 4 6 7.[ k k g < q q q ; ; ; ; ; ; R R =.iXiXiXiXiXiXiXiX",
"iXiXiXiXiXiXiXiXiXiXiX= = - - - t { O.J.z.O.6.n.7.E.7.4 6 6 e ;.' k 7.[ a.q q 9 q q 3 ; ; ; - ; ; ; iXiXiXiXiXiXiXiXiXiX",
"iXiXiXiXiXiXiXiXiXiXiXiX, = - o.= B O.t.s J h 4 4 E.XXXXXXa.1X[ 9 9 E h 2 k 2 9 < 3 ; ; - - ; o.8 iXiXiXiXiXiXiXiXiXiXiX",
"iXiXiXiXiXiXiXiXiXiXiXiXiXiX| 8 = B ! ! s r 7.I O.O.B B z.l t !.G.> 2 h 2 a.2 3 > - : 5 5 5 iXiXiXiXiXiXiXiXiXiXiXiXiXiX",
"iXiXiXiXiXiXiXiXiXiXiXiXiXiXiXiXiXl.! ! f.! ! 6.n.A.A.A.A.].7.f d 2 b h 2 2 9 < > - iXiXiXiXiXiXiXiXiXiXiXiXiXiXiXiXiXiX",
"iXiXiXiXiXiXiXiXiXiXiXiXiXiXiXiXiXiXB ! ! Z.t.~ n.].].7.7.E.E f L b 2 2 t k 9 9 9 5 iXiXiXiXiXiXiXiXiXiXiXiXiXiXiXiXiXiX",
"iXiXiXiXiXiXiXiXiXiXiXiXiXiXiXiXiXiXiXB ! Z.! ~ V f [ [ b 2 b f f b t 9 t > > 3 l.w.= iXiXiXiXiXiXiXiXiXiXiXiXiXiXiXiXiX",
"iXiXiXiXiXiXiXiXiXiXiXiXiXiXiXiXiXiXiXB t.O.! u T 2 k 9 k 2 h h h b 2 9 9 > t *.W.A = =.iXiXiXiXiXiXiXiXiXiXiXiXiXiXiXiX",
"iXiXiXiXiXiXiXiXiXiXiXiXiXiXiXiXiXiXiXiXB t.Z.~ 6 4 e e e e e d d 2 9 3 5.F s.c.s.8 = 5 =.iXiXiXiXiXiXiXiXiXiXiXiXiXiXiX",
"iXiXiXiXiXiXiXiXiXiXiXiXiXiXiXiXiXiXiXiXiXB *XB #.6 e 4 6 y f d t 2 3 g.8.$.%.c.-X5 5 = = | iXiXiXiXiXiXiXiXiXiXiXiXiXiX",
"iXiXiXiXiXiXiXiXiXiXiXiXiXiXiXiXiXiXiXiXiXR.B ~ 6 e 7.e e f b C 9 8.8.D %.%.r.W.5 = , 5 = , I.iXiXiXiXiXiXiXiXiXiXiXiXiX",
"iXiXiXiXiXiXiXiXiXiXiXiXiXiXiXiXiXiXiXiXiXiX~  .j d h h b 2 t 8.8.< J c.r.r.%.;X, 1 = = = = 5 =.=.iXiXiXiXiXiXiXiXiXiXiX",
"iXiXiXiXiXiXiXiXiXiXiXiXiXiXiXiXiXiXiXiXiXiXf.! >.r ,.] D s 8.g 9 C.c.%.( r.c.8 = 5 1 5 5 5 5 5 = 5 =.=.iXiXiXiXiXiXiXiX",
"iXiXiXiXiXiXiXiXiXiXiXiXiXiXiXiXiXiXiXiXiXiXF O.!  .C.3 < < 9 b e %.r.r.r.r.oX8 5 5 , = 5 5 = = = o., = =.I.iXiXiXiXiXiX",
"iXiXiXiXiXiXiXiXiXiXiXiXiXiXiXiXiXiXiXiXiXiX+.H ! { 6 b 2 2 f j r.r.r.( r.%.~., = = = = = 5 = = = 1 = = , A I.I.~.iXiXiX",
"iXiXiXiXiXiXiXiXiXiXiXiXiXiXiXiXiXiXiXiXiX*.3.s H H I j f f j %.r.( r.( r.c.| = = 5 = 5 5 , 5 1 = 5 , 5 5 5 , | =.w.S.iX",
"iXiXiXiXiXiXiXiXiXiXiXiXiXiXiXiXiXiXiXiX|.=Xq.> u H }  .6 y %.( r.( ( r.r.s., 5 , 5 1 = 5 , A = A 5 , 5 5 5 , , 5 | A S.",
"iXiXiXiXiXiXiXiXiXiXiXiXiXiXiXiXiXiXiXS.|.;X%.5.> u { I a %.r.r.( ( ( r.r.~.8 5 5 5 5 , | =.| = =.=.j.A A 5 5 = , , 5 w.",
"iXiXiXiXiXiXiXiXiXiXiXiXiXiXiXiXiXS.S..X|.=X( @.> 9 V I %.( ( r.( ( ( ( c.=.5 | , , 5 =.A =.| 1 A =.| A 5 , A 5 , 5 | 5 ",
"iXiXiXiXiXiXiXiXiXiXiXiXiXiXiXS.~.I..X-X|.|.r.( u.> 9 %.( ( r.( ( ( ( r.s.w.A j., =.w.=.=.=.5 = =.=.j.A | j.| 5 5 , j.j.",
"iXiXiXiXiXiXiXiXiXiXiXiXiX.XS.S.I..XS..X|.S.r.( c.> @.r.( @.`.%.r.r.r.r.|.A , 5 j.A j.=.=.=.5 5 =.=.j.=.=.I.j.5 j., , | ",
"iXiXiXiXiXiXiXiXiXiXiX-XS.I.S.I.w.S..X6X6X7 @.@.%.Z.%.c.%.q.7 c.%.%.r.c.w.A 5 5 A 5 j.=.w.| 5 5 =.j.=.=.=.A =.A | | j.A ",
"iXiXiXiXiXiXiXiXiX|.-XS.I.I.S.S.S.-X|.6X=X| 4.m.k.@.#X X@.> , s.c.%.%.2X=.A j., | =.j.=.I.=.5 5 I.j.=.=.=.=.j.=.j.=.| =.",
"iXiXiXiXiXiXiX|.|.-XS.I.w.S.-X-X.X-X|.6X-Xg @X .C V.> @XD i } H ~ H c..Xw.| | | =.w.w.I.I.=.5 , I.=.=.w.j.j.j.=.=.w.j.=."
};
