/* XPM */
static char *den203a[] = {
/* columns rows colors chars-per-pixel */
"60 60 256 2 ",
"   c black",
".  c #800000",
"X  c #008000",
"o  c #808000",
"O  c navy",
"+  c #800080",
"@  c #008080",
"#  c #C0C0C0",
"$  c #C0DCC0",
"%  c #A4C8F0",
"&  c white",
"*  c black",
"=  c #213129",
"-  c #213121",
";  c #182921",
":  c #102918",
">  c #313931",
",  c #293131",
"<  c #313929",
"1  c #183129",
"2  c #4A4231",
"3  c #394239",
"4  c #84634A",
"5  c #213131",
"6  c #846B5A",
"7  c #313939",
"8  c #293931",
"9  c #423931",
"0  c #BD947B",
"q  c #313129",
"w  c #A58473",
"e  c #735A4A",
"r  c #6B635A",
"t  c #4A4239",
"y  c #846B52",
"u  c #9C8C7B",
"i  c #B59C84",
"p  c #AD7B63",
"a  c #947363",
"s  c #635A52",
"d  c #634A42",
"f  c #6B5242",
"g  c #312931",
"h  c #634A39",
"j  c #7B6452",
"k  c #4A3929",
"l  c #736B63",
"z  c #9C7B63",
"x  c #AD8C7B",
"c  c #735242",
"v  c #A5846B",
"b  c #5A4A39",
"n  c #AD7A6B",
"m  c #BD846B",
"M  c #9C6B52",
"N  c #C69C84",
"B  c #A59C94",
"V  c #846B63",
"C  c #4A4A39",
"Z  c gray26",
"A  c #293139",
"S  c #B58473",
"D  c #5A5A52",
"F  c #4A4B42",
"G  c #B5947B",
"H  c #B5A594",
"J  c #525242",
"K  c #A5735A",
"L  c #6B524A",
"P  c #946B5A",
"I  c #947B73",
"U  c gray39",
"Y  c #9C735A",
"T  c #735A52",
"R  c #102921",
"E  c #634231",
"W  c #CE9C8C",
"Q  c #CEA594",
"!  c #B5A59C",
"~  c #A59484",
"^  c #316B94",
"/  c #C69C7B",
"(  c #EFE7E7",
")  c #316384",
"_  c #9C7363",
"`  c #C69C8C",
"'  c #6B5239",
"]  c #5A4A4A",
"[  c #5A4231",
"{  c #AD9C8C",
"}  c #AD9484",
"|  c #293939",
" . c #8C7B6B",
".. c #5A4A42",
"X. c #393942",
"o. c #182929",
"O. c #BDADA5",
"+. c #4A524A",
"@. c #DEDED6",
"#. c #8C736B",
"$. c #D6D6CE",
"%. c #E7E7DE",
"&. c #7B6B63",
"*. c #929C9C",
"=. c #293A43",
"-. c #845A42",
";. c #7B5A42",
":. c #947B7B",
">. c #8C7D73",
",. c #634A4A",
"<. c #CE9C84",
"1. c #CEAD9C",
"2. c #9C634A",
"3. c #7B736B",
"4. c #848C8C",
"5. c gray29",
"6. c #BD948C",
"7. c #804A42",
"8. c gray32",
"9. c #313121",
"0. c #9C7B6B",
"q. c #C6BDB5",
"w. c #313942",
"e. c #8C847B",
"r. c #E7E7E7",
"t. c #B5ADA5",
"y. c #94948C",
"u. c #8C9494",
"i. c #393939",
"p. c #C6A594",
"a. c #523929",
"s. c #B5BFBD",
"d. c #D6AD9C",
"f. c #A5948C",
"g. c #5A6364",
"h. c #312921",
"j. c #21313B",
"k. c #D8BDA5",
"l. c gray71",
"z. c #846B6B",
"x. c #CECEC6",
"c. c gray87",
"v. c #BD8C73",
"b. c gray45",
"n. c #9C6352",
"m. c #847B7B",
"M. c #D6B59C",
"N. c #636A6B",
"B. c #CECECE",
"V. c #7B7B7B",
"C. c #5A5242",
"Z. c #BDADAD",
"A. c #9C5249",
"S. c #394A52",
"D. c #C68C73",
"F. c #D6B5A5",
"G. c #4A312F",
"H. c #A59C9C",
"J. c #C6B5AD",
"K. c #7B7373",
"L. c #525A63",
"P. c #7B8384",
"I. c #31394A",
"U. c gray97",
"Y. c #C6C6C6",
"T. c #CEBDAD",
"R. c #A5A5A5",
"E. c #734731",
"W. c #C6D6D6",
"Q. c #6B5231",
"!. c #393121",
"~. c #39424A",
"^. c #CEC6BD",
"/. c #7B4939",
"(. c #B59473",
"). c #295273",
"_. c #735239",
"`. c #C6ADA5",
"'. c #BD9473",
"]. c #874539",
"[. c #A5ADAD",
"{. c #182121",
"}. c #213F57",
"|. c #4A5E67",
" X c #DEC6AD",
".X c #42525A",
"XX c #633929",
"oX c #C6CECE",
"OX c #734A39",
"+X c #315273",
"@X c #D6CEBD",
"#X c #D6C6B5",
"$X c #29597B",
"%X c #4A4252",
"&X c #EFEFEF",
"*X c #B5B5AD",
"=X c #636777",
"-X c #425263",
";X c #717986",
":X c #426B8C",
">X c #7B8494",
",X c #7B4229",
"<X c #BD848C",
"1X c #5A3121",
"2X c #8CA5AD",
"3X c #B5737B",
"4X c #5A4263",
"5X c #634A6B",
"6X c #526373",
"7X c #4A6B84",
"8X c black",
"9X c #800000",
"0X c #008000",
"qX c #808000",
"wX c navy",
"eX c #800080",
"rX c #008080",
"tX c #C0C0C0",
"yX c #C0DCC0",
"uX c #A4C8F0",
"iX c #B3353F",
"pX c #4F171C",
"aX c #ECBDC0",
"sX c black",
"dX c black",
"fX c black",
"gX c black",
"hX c black",
"jX c black",
"kX c black",
"lX c black",
"zX c black",
"xX c black",
"cX c black",
"vX c black",
"bX c black",
"nX c black",
"mX c black",
"MX c black",
"NX c black",
"BX c black",
"VX c black",
"CX c black",
"ZX c black",
"AX c black",
"SX c black",
"DX c #FFFBF0",
"FX c #A0A0A4",
"GX c #808080",
"HX c red",
"JX c green",
"KX c yellow",
"LX c blue",
"PX c magenta",
"IX c cyan",
"UX c white",
/* pixels */
"iXiXiXiXiXiXiXiXiXiXiXiXiXiXiXiXiXiXiXiXiXiXiXiXiXiXiXiXiXiXiXiXiXiXiXiXiXiXiXiXiXiXiXiXiXiXiXiXiXiXiXiXiXiXiXiXiXiXiXiX",
"iXiXiXiXiXiXiXiXiXiXiXiXiXiXiXiXiXiXiXiXiXiXiXiXiXiXiXiXiXiXiXiXiXiXiXiXiXiXiXiXiXiXiXiXiXiXiXiXiXiXiXiXiXiXiXiXiXiXiXiX",
"iXiXiXiXiXiXiXiXiXiXiXiXiXiXiXiXiXiXiXiXiXiXiXiX= = 1 1 - - ; = = = iXiXiXiXiXiXiXiXiXiXiXiXiXiXiXiXiXiXiXiXiXiXiXiXiXiX",
"iXiXiXiXiXiXiXiXiXiXiXiXiXiXiXiXiXiXiXiXiX= - = 1 ; = = R ; = - = - = = 8 iXiXiXiXiXiXiXiXiXiXiXiXiXiXiXiXiXiXiXiXiXiXiX",
"iXiXiXiXiXiXiXiXiXiXiXiXiXiXiXiXiXiXiXiX= ; o.1 - 1 1 - ; ; ; ; - ; 1 ; - = 8 iXiXiXiXiXiXiXiXiXiXiXiXiXiXiXiXiXiXiXiXiX",
"iXiXiXiXiXiXiXiXiXiXiXiXiXiXiXiXiXiX5 = 1 = - - = - ; ; ; - ; - 1 1 - - - = = 1 iXiXiXiXiXiXiXiXiXiXiXiXiXiXiXiXiXiXiXiX",
"iXiXiXiXiXiXiXiXiXiXiXiXiXiXiXiXiXiX5 , = = = ; : ; ; = = 1 = - ; 1 ; = = = = = iXiXiXiXiXiXiXiXiXiXiXiXiXiXiXiXiXiXiXiX",
"iXiXiXiXiXiXiXiXiXiXiXiXiXiXiXiXiX= , , = = - = - 1 - - R ; ; ; ; 1 = - = = 1 1 = 5 iXiXiXiXiXiXiXiXiXiXiXiXiXiXiXiXiXiX",
"iXiXiXiXiXiXiXiXiXiXiXiXiXiXiXiX5 = , w.5 = = 1 = = ; = 1 ; - o.- ; = = g , < 1 - = ; iXiXiXiXiXiXiXiXiXiXiXiXiXiXiXiXiX",
"iXiXiXiXiXiXiXiXiXiXiXiXiXiXiXiX8 = 8 g | = = = = - = = ; ; = ; o.= - = > 7 , < = ; 1 1 iXiXiXiXiXiXiXiXiXiXiXiXiXiXiXiX",
"iXiXiXiXiXiXiXiXiXiXiXiXiXiXiX8 = = 5 , 5 ; = 1 ; = = - ; - 1 = 1 1 = > 9 3 ] ] 5 1 - 1 , iXiXiXiXiXiXiXiXiXiXiXiXiXiXiX",
"iXiXiXiXiXiXiXiXiXiXiXiXiXiXiX5 = 1 , 5 , = = 1 = 1 = 1 = - - = = > 9 C T V &. .> = ; = , iXiXiXiXiXiXiXiXiXiXiXiXiXiXiX",
"iXiXiXiXiXiXiXiXiXiXiXiXiXiX| - = o.= = 8 8 8 5 , , 5 = = = = g ....e j  .~ H } L = = = , 7 iXiXiXiXiXiXiXiXiXiXiXiXiXiX",
"iXiXiXiXiXiXiXiXiXiXiXiXiXiX= = 1 = 1 = = , 7 7 g , = = > t L j 6 6 a  .w { H H ~ < = = > , iXiXiXiXiXiXiXiXiXiXiXiXiXiX",
"iXiXiXiXiXiXiXiXiXiXiXiXiX5 1 ; o.- ; = = 8 i.i.3 > t f y z z v w v w w w u H H } 9 = = > 8 w.iXiXiXiXiXiXiXiXiXiXiXiXiX",
"iXiXiXiXiXiXiXiXiXiXiXiXiX= = = - - ; 1 = 9 ..s L j a v i i i i i i i G x x } H } J < q > > > iXiXiXiXiXiXiXiXiXiXiXiXiX",
"iXiXiXiXiXiXiXiXiXiXiXiXiX1 = 1 = 9 o.= 8 d T j v G i 1.k.M.Q ` Q ` i i i } } } } ,.= > q < = iXiXiXiXiXiXiXiXiXiXiXiXiX",
"iXiXiXiXiXiXiXiXiXiXiXiXiX= = = , t 2 g t x p.F.k.k.k.F.k.k.M.Q 1.p.` i i } x } u ,.= , = g 8 iXiXiXiXiXiXiXiXiXiXiXiXiX",
"iXiXiXiXiXiXiXiXiXiXiXiXiX= = = Z V t b v Q T. X X Xk.k.T.k.M.k.Q Q 6.G i i x x ~ d < = , = 8 iXiXiXiXiXiXiXiXiXiXiXiXiX",
"iXiXiXiXiXiXiXiXiXiXiXiX=.= = = +.#.x i 1.k. X X#X X Xk.T.M.T.1.` i i i i H { H x s q = > = < iXiXiXiXiXiXiXiXiXiXiXiXiX",
"iXiXiXiXiXiXiXiXiXiXiXiX5 > q = Z #.1.F.k.1.F.F.k.k.F.Q F.Q p.6.a 6 V r V a ~ i } j q = , = = iXiXiXiXiXiXiXiXiXiXiXiXiX",
"iXiXiXiXiXiXiXiXiXiXiXiX1 7 = - 3  .Q 1.p.~ u I z.l I ~ 6.G w w C.3 9 J F F X.D 3.a > = = = = =.iXiXiXiXiXiXiXiXiXiXiXiX",
"iXiXiXiXiXiXiXiXiXiXiXiX= , 1 = = } 1.f.D Z U D 5.3 F s  .a j r > < = = = = < 5.w F ..= = = = = iXiXiXiXiXiXiXiXiXiXiXiX",
"iXiXiXiXiXiXiXiXiXiXiXiX- = = = = z.H V D i.> < = > G.] y w c 3 D X.= g 9 t ,.J u = +.8.= = = = iXiXiXiXiXiXiXiXiXiXiXiX",
"iXiXiXiXiXiXiXiXiXiXiXiX= = ; = = < { r u j > = o.< > V e.l ] C.3 = > = = = < T J < Z > = = = = iXiXiXiXiXiXiXiXiXiXiXiX",
"iXiXiXiXiXiXiXiXiXiXiXiX= ; = = X.= #.w P g l > < 2 t ~ 0.1.i 8.> < d d C t t 9 6 9 7 = = 1 = = iXiXiXiXiXiXiXiXiXiXiXiX",
"iXiXiXiXiXiXiXiXiXiXiXiX= = = = 5., w z y K w j e f c e.F.k.W 2 2 k b f c c f y v 6 U t = = q < iXiXiXiXiXiXiXiXiXiXiXiX",
"iXiXiXiXiXiXiXiXiXiXiXiX= , < = > P i n v S v y -.P n e k.d.` y a h 4 Y z v v (.x w f.a < < f iXiXiXiXiXiXiXiXiXiXiXiXiX",
"iXiXiXiXiXiXiXiXiXiXiXiX8 a i ' T p.` ` ` N / N N N S v M.d.<.v L 6 P n w G S G (.u e.w a [ c :.iXiXiXiXiXiXiXiXiXiXiXiX",
"iXiXiXiXiXiXiXiXiXiXiXiXiXk.N i } u ` Q W d.Q Q N N j M.k.M.<.v z f z n n S G i i B a  .0.4 ' w iXiXiXiXiXiXiXiXiXiXiXiX",
"iXiXiXiXiXiXiXiXiXiXiXiXiXF.m  X{ P H W k.M.Q Q W u M.M.M.k.W w _ c t V.:.u m.U a w a I 0.c ' 0.iXiXiXiXiXiXiXiXiXiXiXiX",
"iXiXiXiXiXiXiXiXiXiXiXiXiX<.p F.H ` (.>.:.B y.:.y i d.M.d.k.<.x 0.a 2 E ;.P a _ 0.v a #.P P 0.I iXiXiXiXiXiXiXiXiXiXiXiX",
"iXiXiXiXiXiXiXiXiXiXiXiXiXQ k.Q ` i 1.Q Q Q i w S W d.d.d.k.N G w a b a.h P P P a a a a Y 0.x H.iXiXiXiXiXiXiXiXiXiXiXiX",
"iXiXiXiXiXiXiXiXiXiXiXiXiX1. Xk.Q i p.Q Q p.p Y i 6.G G ` ` w P d < 9.< 2 f 4 c 4 6 a  .y z x iXiXiXiXiXiXiXiXiXiXiXiXiX",
"iXiXiXiXiXiXiXiXiXiXiXiXiX1.F.k.W i i N ` w e V d ..d 6 w y f 2 - = = = - < b e c c a  .' a I iXiXiXiXiXiXiXiXiXiXiXiXiX",
"iXiXiXiXiXiXiXiXiXiXiXiXiXiX1.F.N { i i i ..t t > 9 q > 2 ..< - = - - - - - < ..b d V  .iXiXiXiXiXiXiXiXiXiXiXiXiXiXiXiX",
"iXiXiXiXiXiXiXiXiXiXiXiXiXiXiXiXiX} 6.x w > , > > = g q > k > = = = = = = = = t > ..6  .iXiXiXiXiXiXiXiXiXiXiXiXiXiXiXiX",
"iXiXiXiXiXiXiXiXiXiXiXiXiXiXiXiXiXw i v a 8 , g 3 < > > q < = < = = < = - = = C.9 d 6 #.iXiXiXiXiXiXiXiXiXiXiXiXiXiXiXiX",
"iXiXiXiXiXiXiXiXiXiXiXiXiXiXiXiXiX:.i x x C.> > > 3 b t 2 9 9 < > > - = < > J T t L 6 z.iXiXiXiXiXiXiXiXiXiXiXiXiXiXiXiX",
"iXiXiXiXiXiXiXiXiXiXiXiXiXiXiXiXiXiX} i { i w w G 9 Z ..e G.G.k G.q G.f C.d L T J s 6 &.iXiXiXiXiXiXiXiXiXiXiXiXiXiXiXiX",
"iXiXiXiXiXiXiXiXiXiXiXiXiXiXiXiXiXiXw i G i } i p.0 S n 6.i x _ _ P P j j s L s t T T iXiXiXiXiXiXiXiXiXiXiXiXiXiXiXiXiX",
"iXiXiXiXiXiXiXiXiXiXiXiXiXiXiXiXiXiXI } i u } { 6.p.` `.p.G S S w a 6 T j T L C ..T r iXiXiXiXiXiXiXiXiXiXiXiXiXiXiXiXiX",
"iXiXiXiXiXiXiXiXiXiXiXiXiXiXiXiXiXiXu I x x } { 6.0 { } I 6 V a j T e T j T T C s T T iXiXiXiXiXiXiXiXiXiXiXiXiXiXiXiXiX",
"iXiXiXiXiXiXiXiXiXiXiXiXiXiXiXiXiXiXu w 0.i } i i } } } u I I a 6 T j 6 6 T L C.L 6 6 iXiXiXiXiXiXiXiXiXiXiXiXiXiXiXiXiX",
"iXiXiXiXiXiXiXiXiXiXiXiXiXiXiXiXiXiX{ ~ w x (.} { 6.i } u w u 0.a 6  .a V j L f j j #.iXiXiXiXiXiXiXiXiXiXiXiXiXiXiXiXiX",
"iXiXiXiXiXiXiXiXiXiXiXiXiXiXiXiXiXiX{ } ~ w x u { H 6.H H } } x w a  .V T l s L 6 6 a iXiXiXiXiXiXiXiXiXiXiXiXiXiXiXiXiX",
"iXiXiXiXiXiXiXiXiXiXiXiXiXiXiXiXiXiXu 6.} w w ~ } { { { { x i w  . .V r r T L r T 6 a iXiXiXiXiXiXiXiXiXiXiXiXiXiXiXiXiX",
"iXiXiXiXiXiXiXiXiXiXiXiXiXiXiXiXiXiXN.6.6.u u ~ :.f.{ { { } ~  .T T ] ] s L ] e e 6 I iXiXiXiXiXiXiXiXiXiXiXiXiXiXiXiXiX",
"iXiXiXiXiXiXiXiXiXiXiXiXiXiXiXiXiX| l.{ 6.} u u u u u u u I  .r L C F J C.,.d s T 6 y.8 iXiXiXiXiXiXiXiXiXiXiXiXiXiXiXiX",
"iXiXiXiXiXiXiXiXiXiXiXiXiXiXiXiX5 = Y.`.6.6.} w I I &.U r ] J 3 > < 3 C J J ,.L T a l.< iXiXiXiXiXiXiXiXiXiXiXiXiXiXiXiX",
"iXiXiXiXiXiXiXiXiXiXiXiXiXiXiX= = = oX$.F.H 6.{ u z.l r F > g = < > 9 9 t d ,.L j *Xl.< < 8 iXiXiXiXiXiXiXiXiXiXiXiXiXiX",
"iXiXiXiXiXiXiXiXiXiXiXiXiXiX1 = = 8 B.@.$.1.H H 6.x w 6 ..3 3 > < 9 t J ..,.,.e *.s.s., 1 < | iXiXiXiXiXiXiXiXiXiXiXiXiX",
"iXiXiXiXiXiXiXiXiXiXiXiX5 = 1 - - 8 W.@.@.@.1.H p.p.6.} v 6 c d b J J ,.,.,.T 4.l.s.s.< = = = 5 iXiXiXiXiXiXiXiXiXiXiXiX",
"iXiXiXiXiXiXiXiXiXj.1 = - ; 1 = - 8 B.@.@.@.@.`.H p.p.6.6.G v j ] ] L T e s *.[.l.s.l.< = = = = = = I.iXiXiXiXiXiXiXiXiX",
"iXiXiXiXiXiXiX= = ; = ; = - ; - = 8 B.@.@.@.@.@.`.1.1.p.` x a e j j j j &.[.[.*Xl.s.*X= - = = = = = = , 5 iXiXiXiXiXiXiX",
"iXiXiXiXiX= - = - ; - ; ; = - = - = B.@.@.c.@.@.@.`.p.p.i a 4 j  .a V t.s.l.l.l.l.l.*.8 = = = = = = = - = = = =.iXiXiXiX",
"iXiX5 1 ; - - ; o.; ; 1 ; ; ; 1 = = B.@.@.c.c.c.@.@.$.H 6.P 6 0.w u x.B.Y.Y.s.l.s.l.g.= < = = = = = = - = 1 1 1 = , iXiX",
"1 1 ; 1 1 - o.1 - ; ; 1 o.; = = = 1 oX$.@.@.%.c.%.@.@.$.~ 6 a x J.$.$.$.B.Y.s.s.s.[.7 < - = = = - = 1 - = - 1 = = = 1 5 ",
"= 1 ; R ; ; ; o.; ; - 1 ; 1 5 = ; = Y.$.@.@.c.c.@.@.@.$.u.f ,.{ x.$.$.$.B.oXs.s.l.4.< = = = = = = = = = = = = = 1 = = = ",
"- - - ; - - - ; ; ; = R 1 - ; 1 8 = R.$.$.@.@.c.%.@.x./.E E.E ].[ j B.$.B.Y.s.s.l.b.= = = = = = = - 1 = = = o.- = - = = "
};
