/* XPM */
static char *fra203a[] = {
/* columns rows colors chars-per-pixel */
"60 60 256 2 ",
"   c black",
".  c #800000",
"X  c #008000",
"o  c #808000",
"O  c navy",
"+  c #800080",
"@  c #008080",
"#  c #C0C0C0",
"$  c #C0DCC0",
"%  c #A4C8F0",
"&  c white",
"*  c black",
"=  c #213129",
"-  c #213121",
";  c #182921",
":  c #102918",
">  c #313931",
",  c #293131",
"<  c #313929",
"1  c #183129",
"2  c #4A4231",
"3  c #394239",
"4  c #84634A",
"5  c #213131",
"6  c #846B5A",
"7  c #313939",
"8  c #293931",
"9  c #423931",
"0  c #BD947B",
"q  c #313129",
"w  c #A58473",
"e  c #735A4A",
"r  c #6B635A",
"t  c #4A4239",
"y  c #846B52",
"u  c #9C8C7B",
"i  c #B59C84",
"p  c #AD7B63",
"a  c #947363",
"s  c #635A52",
"d  c #634A42",
"f  c #6B5242",
"g  c #312931",
"h  c #634A39",
"j  c #7B6452",
"k  c #4A3929",
"l  c #736B63",
"z  c #9C7B63",
"x  c #AD8C7B",
"c  c #735242",
"v  c #A5846B",
"b  c #5A4A39",
"n  c #AD7A6B",
"m  c #BD846B",
"M  c #9C6B52",
"N  c #C69C84",
"B  c #A59C94",
"V  c #846B63",
"C  c #4A4A39",
"Z  c gray26",
"A  c #293139",
"S  c #B58473",
"D  c #5A5A52",
"F  c #4A4B42",
"G  c #B5947B",
"H  c #B5A594",
"J  c #525242",
"K  c #A5735A",
"L  c #6B524A",
"P  c #946B5A",
"I  c #947B73",
"U  c gray39",
"Y  c #9C735A",
"T  c #735A52",
"R  c #102921",
"E  c #634231",
"W  c #CE9C8C",
"Q  c #CEA594",
"!  c #B5A59C",
"~  c #A59484",
"^  c #316B94",
"/  c #C69C7B",
"(  c #EFE7E7",
")  c #316384",
"_  c #9C7363",
"`  c #C69C8C",
"'  c #6B5239",
"]  c #5A4A4A",
"[  c #5A4231",
"{  c #AD9C8C",
"}  c #AD9484",
"|  c #293939",
" . c #8C7B6B",
".. c #5A4A42",
"X. c #393942",
"o. c #182929",
"O. c #BDADA5",
"+. c #4A524A",
"@. c #DEDED6",
"#. c #8C736B",
"$. c #D6D6CE",
"%. c #E7E7DE",
"&. c #7B6B63",
"*. c #929C9C",
"=. c #293A43",
"-. c #845A42",
";. c #7B5A42",
":. c #947B7B",
">. c #8C7D73",
",. c #634A4A",
"<. c #CE9C84",
"1. c #CEAD9C",
"2. c #9C634A",
"3. c #7B736B",
"4. c #848C8C",
"5. c gray29",
"6. c #BD948C",
"7. c #804A42",
"8. c gray32",
"9. c #313121",
"0. c #9C7B6B",
"q. c #C6BDB5",
"w. c #313942",
"e. c #8C847B",
"r. c #E7E7E7",
"t. c #B5ADA5",
"y. c #94948C",
"u. c #8C9494",
"i. c #393939",
"p. c #C6A594",
"a. c #523929",
"s. c #B5BFBD",
"d. c #D6AD9C",
"f. c #A5948C",
"g. c #5A6364",
"h. c #312921",
"j. c #21313B",
"k. c #D8BDA5",
"l. c gray71",
"z. c #846B6B",
"x. c #CECEC6",
"c. c gray87",
"v. c #BD8C73",
"b. c gray45",
"n. c #9C6352",
"m. c #847B7B",
"M. c #D6B59C",
"N. c #636A6B",
"B. c #CECECE",
"V. c #7B7B7B",
"C. c #5A5242",
"Z. c #BDADAD",
"A. c #9C5249",
"S. c #394A52",
"D. c #C68C73",
"F. c #D6B5A5",
"G. c #4A312F",
"H. c #A59C9C",
"J. c #C6B5AD",
"K. c #7B7373",
"L. c #525A63",
"P. c #7B8384",
"I. c #31394A",
"U. c gray97",
"Y. c #C6C6C6",
"T. c #CEBDAD",
"R. c #A5A5A5",
"E. c #734731",
"W. c #C6D6D6",
"Q. c #6B5231",
"!. c #393121",
"~. c #39424A",
"^. c #CEC6BD",
"/. c #7B4939",
"(. c #B59473",
"). c #295273",
"_. c #735239",
"`. c #C6ADA5",
"'. c #BD9473",
"]. c #874539",
"[. c #A5ADAD",
"{. c #182121",
"}. c #213F57",
"|. c #4A5E67",
" X c #DEC6AD",
".X c #42525A",
"XX c #633929",
"oX c #C6CECE",
"OX c #734A39",
"+X c #315273",
"@X c #D6CEBD",
"#X c #D6C6B5",
"$X c #29597B",
"%X c #4A4252",
"&X c #EFEFEF",
"*X c #B5B5AD",
"=X c #636777",
"-X c #425263",
";X c #717986",
":X c #426B8C",
">X c #7B8494",
",X c #7B4229",
"<X c #BD848C",
"1X c #5A3121",
"2X c #8CA5AD",
"3X c #B5737B",
"4X c #5A4263",
"5X c #634A6B",
"6X c #526373",
"7X c #4A6B84",
"8X c black",
"9X c #800000",
"0X c #008000",
"qX c #808000",
"wX c navy",
"eX c #800080",
"rX c #008080",
"tX c #C0C0C0",
"yX c #C0DCC0",
"uX c #A4C8F0",
"iX c #B3353F",
"pX c #4F171C",
"aX c #ECBDC0",
"sX c black",
"dX c black",
"fX c black",
"gX c black",
"hX c black",
"jX c black",
"kX c black",
"lX c black",
"zX c black",
"xX c black",
"cX c black",
"vX c black",
"bX c black",
"nX c black",
"mX c black",
"MX c black",
"NX c black",
"BX c black",
"VX c black",
"CX c black",
"ZX c black",
"AX c black",
"SX c black",
"DX c #FFFBF0",
"FX c #A0A0A4",
"GX c #808080",
"HX c red",
"JX c green",
"KX c yellow",
"LX c blue",
"PX c magenta",
"IX c cyan",
"UX c white",
/* pixels */
"iXiXiXiXiXiXiXiXiXiXiXiXiXiXiXiXiXiXiXiXiXiXiXiXiXiXiXiXiXiXiXiXiXiXiXiXiXiXiXiXiXiXiXiXiXiXiXiXiXiXiXiXiXiXiXiXiXiXiXiX",
"iXiXiXiXiXiXiXiXiXiXiXiXiXiXiXiXiXiXiXiXiXiXiXiXiXiXiXiXiXiXiXiXiXiXiXiXiXiXiXiXiXiXiXiXiXiXiXiXiXiXiXiXiXiXiXiXiXiXiXiX",
"iXiXiXiXiXiXiXiXiXiXiXiXiXiXiXiXiXiXiXiXiXiXiXiXiXiX5.5.Z X.g > > > , 7 > iXiXiXiXiXiXiXiXiXiXiXiXiXiXiXiXiXiXiXiXiXiXiX",
"iXiXiXiXiXiXiXiXiXiXiXiXiXiXiXiXiXiXiXiXiXiXiX7 3 s r D Z 3 3 C C 3 3 < = > 7 7 iXiXiXiXiXiXiXiXiXiXiXiXiXiXiXiXiXiXiXiX",
"iXiXiXiXiXiXiXiXiXiXiXiXiXiXiXiXiXiXiXiXiXiX7 F Z F > +.Z > < q > g 3 = = > - g 8.g.iXiXiXiXiXiXiXiXiXiXiXiXiXiXiXiXiXiX",
"iXiXiXiXiXiXiXiXiXiXiXiXiXiXiXiXiXiXiX8.+.C C 3 F = = - > 3 3 > > - - = - 3 7 < ; 5.iXiXiXiXiXiXiXiXiXiXiXiXiXiXiXiXiXiX",
"iXiXiXiXiXiXiXiXiXiXiXiXiXiXiXiXiXiXF 3 i.3 8 7 = - Z > q = = ; - - - - : h.< = < = 8 iXiXiXiXiXiXiXiXiXiXiXiXiXiXiXiXiX",
"iXiXiXiXiXiXiXiXiXiXiXiXiXiXiXiXiXF F > > - = < = Z < - = < - - - = ; < = = = 3 - - < 8.iXiXiXiXiXiXiXiXiXiXiXiXiXiXiXiX",
"iXiXiXiXiXiXiXiXiXiXiXiXiXiXiXb.Z > +.- - = F < < > 3 - < < < : - - : - - > - - < - = Z iXZ iXiXiXiXiXiXiXiXiXiXiXiXiXiX",
"iXiXiXiXiXiXiXiXiXiXiXiXiXiX+.3 3 8 > 9 F +.s < < 9 < > = - < - - - < - : : - - - ; ; F > 7 3 iXiXiXiXiXiXiXiXiXiXiXiXiX",
"iXiXiXiXiXiXiXiXiXiXiXiXiXiXs F > C U C < < q > s < 9 < 9.; 9.q < q q - : - : - - - ; = D +.8.Z iXiXiXiXiXiXiXiXiXiXiXiX",
"iXiXiXiXiXiXiXiXiXiXiXiXiXK.J C Z r D C 3 3 q k 2 9 9 9 9.h.- 9.q < - - - - - - - - > = = U C 3 |.iXiXiXiXiXiXiXiXiXiXiX",
"iXiXiXiXiXiXiXiXiXiXiXiXiX+.D ] D +.r +.Z 3 C C C k q [ [ a.k q - - h.< > k k q 9.k g = = D r 3 > iXiXiXiXiXiXiXiXiXiXiX",
"iXiXiXiXiXiXiXiXiXiXiXiX+.l 3.s > D m.9 s C.s h L _.f /.2.K K 4 a.!.q a.OXe Q.E Q.;.4 > = 5.U g.+.~.iXiXiXiXiXiXiXiXiXiX",
"iXiXiXiXiXiXiXiXiXiXiXiXs l 3.s 9 9 l 3.l d ' ;.4 4 4 K p p m p p K M M 2.2.Y K z M c 9.q = Z 7 8.Z iXiXiXiXiXiXiXiXiXiX",
"iXiXiXiXiXiXiXiXiXiXiXiXb.e.l F K.r 3.l L e 4 _.-.2.p p m m v.v.'.v.'.S m m m v.p p 7.E d q = > Z 8.iXiXiXiXiXiXiXiXiXiX",
"iXiXiXiXiXiXiXiXiXiXiXiXb.e.m.t y.l C  .L 4 z 2.m p p m m m m <.W ` ` p.` Q 0 0 v.S p K M C q Z > +.iXiXiXiXiXiXiXiXiXiX",
"iXiXiXiXiXiXiXiXiXiXiXiXl e.K.3.B m.s e.j y M m m m m m m m m N 1.Q p.` ` ` N N 0 S p K P ;.3 > Z 8.|.iXiXiXiXiXiXiXiXiX",
"iXiXiXiXiXiXiXiXiXiXiXiX3.>.3.m.t.y.l s V y P N D.m m p m p p m N Q ` Q ` ` N i / m p K Y y < - > +..XiXiXiXiXiXiXiXiXiX",
"iXiXiXiXiXiXiXiXiXiXiX! B l K.~ B f.f.6 6 a (.N D.m p p p p p m / N ` ` ` ` 0 0 v.p K K K M d > X.+.5.iXiXiXiXiXiXiXiXiX",
"iXiXiXiXiXiXiXiXiXiXH.H.e.l l y.y.e.e.! I a G Q / m p p p p p v.D.N ` Q N Q ` 0 v.p p K p Y 4 J 5.+.iXiXiXiXiXiXiXiXiXiX",
"iXiXiXiXiXiXiXiXiXiX4.u H.u y.B u B B H >.P G 1.N v.p p m m m m D./ W p.N W N ` / v.m p p Y y F +.8.iXiXiXiXiXiXiXiXiXiX",
"iXiXiXiXiXiXiXiXiXiXm.e.t.t.t.O.u H u H  ._ p.Q N 0 v.p m p n m / p.p.` N N N N N S z _ _ P y 3 F 8.iXiXiXiXiXiXiXiXiXiX",
"iXiXiXiXiXiXiXiXiXiXiXB ! Z.t.t.O.t.f.H a x T.N N 0 m 4 -.-.Q.;.2.p v.0 N 0 0 G w M ;.' 4 4 y C +.g.iXiXiXiXiXiXiXiXiXiX",
"iXiXiXiXiXiXiXiXiXiXiXe.! :.t.! O.O.H w x 1.M.Q N z 2.E.Q.XXa.a.Q.-.Y p p p p Y 4 E k E E h d 3 N.L.iXiXiXiXiXiXiXiXiXiX",
"iXiXiXiXiXiXiXiXiXiXiXiX0 _ f.O.J.! O.Y 1.1.1.p.x z y ;.E [ a.a.Q.E.-.M K K M 4 ' [ c c e 4 d 3 b.iXiXiXiXiXiXiXiXiXiXiX",
"iXiXiXiXiXiXiXiXiXiXiXS -.0 x ! O.~ 6 S T.F.Q 0 z -.Q.E - 9 s ' ' [ Q.4 2.K OXE 2 b L c ;.c T 3 b.iXiXiXiXiXiXiXiXiXiXiX",
"iXiXiXiXiXiXiXiXiXiXiXp G K 2.{ { u a 1.k.M.M.0 p P E _.3 < y.w ].4 E 2.K m 4 Q.> - 3 r [ 6 V Z iXiXiXiXiXiXiXiXiXiXiXiX",
"iXiXiXiXiXiXiXiXiXiXiX0 p A.XXm 0 6.i k.T.k.Q 0 p n z S v w G n w i -.2.p m S _ M a #._ y M  .iXiXiXiXiXiXiXiXiXiXiXiXiX",
"iXiXiXiXiXiXiXiXiXiXiXiXK ].XXXXm #XF.k. XM.W m K p m _ -.2.M v _ p Y M m K K n 2.n._ 0.v z u iXiXiXiXiXiXiXiXiXiXiXiXiX",
"iXiXiXiXiXiXiXiXiXiXiXiX0 A.,X1Xm  Xk. XF.k.W D.m p m m p m v.S 0 p K n 0 m p 0 0 G z w n n w iXiXiXiXiXiXiXiXiXiXiXiXiX",
"iXiXiXiXiXiXiXiXiXiXiXiXiX2.,X,XQ  Xk.#XT.F./ D.p m m m m v.v.N 0 K K p m m p K 0 0 0 0 S n _ iXiXiXiXiXiXiXiXiXiXiXiXiX",
"iXiXiXiXiXiXiXiXiXiXiXiXiXm ].XX/ M. X#Xk. XM./ v.m m m m v.D.v.v.p K K m p p p v.D.0 0 n p Y iXiXiXiXiXiXiXiXiXiXiXiXiX",
"iXiXiXiXiXiXiXiXiXiXiXiXiXQ Q 2.,XQ T. Xk.F.F.Q 0 m p n 0 D.0 v.m A.2.K / p v.v.K v.0 0 n K Y iXiXiXiXiXiXiXiXiXiXiXiXiX",
"iXiXiXiXiXiXiXiXiXiXiXiXiXiXF.m K Q T.k.F.Q Q W / 0 K K p p K M 7.A.K n 0 K K p A.n.p n p K n.iXiXiXiXiXiXiXiXiXiXiXiXiX",
"iXiXiXiXiXiXiXiXiXiXiXiXiXiX1.W D.Q M.F.1.Q W ` 0 S K 2.K A.2._ A.1XG.!.k ].].7.n._ ].2.K K y iXiXiXiXiXiXiXiXiXiXiXiXiX",
"iXiXiXiXiXiXiXiXiXiXiXiXiXiXiXQ Q M M.M.1.Q W N n n M 2.7.M Y A.A.7.OXE.a.a.E _.-.n.;.E.A.2.c iXiXiXiXiXiXiXiXiXiXiXiXiX",
"iXiXiXiXiXiXiXiXiXiXiXiXiXiXiXu m K M.Q 1.1.` S _ m K 2.-.4 7.7.7.4 4 4 OXE 7.4 4 7.n.1X7.4 f iXiXiXiXiXiXiXiXiXiXiXiXiX",
"iXiXiXiXiXiXiXiXiXiXiXiXiXiXiXiXl M.1.M.Q d.` n P ` K -./.XXQ./.-.A.A.n.K _ M 4 4 c -.XX2.4 iXiXiXiXiXiXiXiXiXiXiXiXiXiX",
"iXiXiXiXiXiXiXiXiXiXiXiXiXiXiXiX3.Q 1.Q Q Q N m M ` K v -.- h.G.E.XXE.-./.-.-.' - E._.-.M e iXiXiXiXiXiXiXiXiXiXiXiXiXiX",
"iXiXiXiXiXiXiXiXiXiXiXiXiXiXiXiXU p.Q 1.Q <.N m M G M n n.n.a.k 4 w 6.{ { H H U XXn.y Y n.d iXiXiXiXiXiXiXiXiXiXiXiXiXiX",
"iXiXiXiXiXiXiXiXiXiXiXiXiXiXiXiXiX` Q Q ` N 0 p M z M p n.K n.A.7.XXE.E./.7.4 A.n.P M Y 7.iXiXiXiXiXiXiXiXiXiXiXiXiXiXiX",
"iXiXiXiXiXiXiXiXiXiXiXiXiXiXiXiXiXi p Q ` 0 n p M 4 M M n 2.M 2.K K n n S S K 2.2.Y z 4 d iXiXiXiXiXiXiXiXiXiXiXiXiXiXiX",
"iXiXiXiXiXiXiXiXiXiXiXiXiXiXiXiXiX2 N ` N 0 p p M -.-.M p 4 K K K M Y n.n.M n.A.Y Y Y h iXiXiXiXiXiXiXiXiXiXiXiXiXiXiXiX",
"iXiXiXiXiXiXiXiXiXiXiXiXiXiXiXiX= - N -./ m m p M -.4 M p p -.p p M M Y _ p K n.K p e f iXiXiXiXiXiXiXiXiXiXiXiXiXiXiXiX",
"iXiXiXiXiXiXiXiXiXiXiXiXiXiXiX= = - N n K m p p K M M Y v.m K 0 p m p K p K n.n.M K c iXiXiXiXiXiXiXiXiXiXiXiXiXiXiXiXiX",
"iXiXiXiXiXiXiXiXiXiXiXiXiXiX- - = - T.0 2.p M K K Y Y v 0 0 p 0 p m K p n n p n.2.Y ' iXiXiXiXiXiXiXiXiXiXiXiXiXiXiXiXiX",
"iXiXiXiXiXiXiXiXiXiXiXiXiX- - - = - $.0 n ,X-.n.Y _ _ p S 0 0 v.p K K p Y _ _ n.n.y iXiXiXiXiXiXiXiXiXiXiXiXiXiXiXiXiXiX",
"iXiXiXiXiXiXiXiXiXiXiXiX= : h.- - - x.x.m -.1XM n.Y P _ p G S S K A.-.2.n.4 4 4 4 L iXiXiXiXiXiXiXiXiXiXiXiXiXiXiXiXiXiX",
"iXiXiXiXiXiXiXiXiXiX= - - - - ; - - l x.#Xz E.!.7.M M 4 Y Y z M 4 /.Q.' ' ' ' OXb iXiXiXiXiXiXiXiXiXiXiXiXiXiXiXiXiXiXiX",
"iXiXiXiXiXiXiXiX= - - - - : : - - - - $.x.T.2.E.!.h 4 y P y 6 c t k k k k k k iXiXiXiXiXiXiXiXiXiXiXiXiXiXiXiXiXiXiXiXiX",
"iXiXiXiXiXiXiX- : : - : : - - h.- - - x.$.x.^.E.a.h.!.c 7.P f [ k k k k < [ ~ iXiXiXiXiXiXiXiXiXiXiXiXiXiXiXiXiXiXiXiXiX",
"iXiXiXiXiX= - ; : = - - ; - - : ; - - +.$.$.^.O.E.!.- 9.[ Y !.9.!.9.k < a.OXt.5 iXiXiXiXiXiXiXiXiXiXiXiXiXiXiXiXiXiXiXiX",
"iXiXiX= = - - - : : : : - - - - - - - - $.x.$.^.*X[ a.- !.7.q !.k k k k ' ' [.5 = , iXiXiXiXiXiXiXiXiXiXiXiXiXiXiXiXiXiX",
"iX= = = - ; ; ; : ; : : : - - : - ; ; - *.$.x.Y.^.l.L a.a.[ [ a.a.E E E _.H [.= 1 = 5 - iXiXiXiXiXiXiXiXiXiXiXiXiXiXiXiX",
"= - - ; - - : : : ; - - - ; - ; ; - - - = $.$.Y.^.^.q.y.E k E E [ E Q.c a x.[.= 1 ; 1 5 - = = iXiXiXiXiXiXiXiXiXiXiXiXiX",
"- - - - - : ; : ; ; ; : : - ; - ; ; - - = s.$.$.x.Y.Y.^.~ /.E ' 7.OX7.6 ^.Y.>X; 1 ; - 5 1 ; - ; 5 iXiXiXiXiXiXiXiXiXiXiX",
"- : : : - - - : : - - : - : ; - - h.- - - X.$.@.$.$.x.^.^.O./.7.]./.P x.B.B.S.- - - ; ; = = ; - - - = iXiXiXiXiXiXiXiXiX",
"- - : : - : : : : : - - : : - - - - - - h.- R.@.@.@.$.@X$.$.x.e E u.x.$.$.x.- : - - - - - = - - ; ; - 1 8 iXiXiXiXiXiXiX",
"- - ; - ; : - - - - - - - - = - - ; - - = = Z Y.$.@.@X$.@.@.@.>X> = q *.$.l.1 - - - - ; - = 1 - ; ; - - = = 5 | iXiXiXiX"
};
