/* XPM */
static char *kid203a[] = {
/* columns rows colors chars-per-pixel */
"60 60 256 2 ",
"   c black",
".  c #800000",
"X  c #008000",
"o  c #808000",
"O  c navy",
"+  c #800080",
"@  c #008080",
"#  c #C0C0C0",
"$  c #C0DCC0",
"%  c #A4C8F0",
"&  c white",
"*  c black",
"=  c #213129",
"-  c #213121",
";  c #182921",
":  c #102918",
">  c #313931",
",  c #293131",
"<  c #313929",
"1  c #183129",
"2  c #4A4231",
"3  c #394239",
"4  c #84634A",
"5  c #213131",
"6  c #846B5A",
"7  c #313939",
"8  c #293931",
"9  c #423931",
"0  c #BD947B",
"q  c #313129",
"w  c #A58473",
"e  c #735A4A",
"r  c #6B635A",
"t  c #4A4239",
"y  c #846B52",
"u  c #9C8C7B",
"i  c #B59C84",
"p  c #AD7B63",
"a  c #947363",
"s  c #635A52",
"d  c #634A42",
"f  c #6B5242",
"g  c #312931",
"h  c #634A39",
"j  c #7B6452",
"k  c #4A3929",
"l  c #736B63",
"z  c #9C7B63",
"x  c #AD8C7B",
"c  c #735242",
"v  c #A5846B",
"b  c #5A4A39",
"n  c #AD7A6B",
"m  c #BD846B",
"M  c #9C6B52",
"N  c #C69C84",
"B  c #A59C94",
"V  c #846B63",
"C  c #4A4A39",
"Z  c gray26",
"A  c #293139",
"S  c #B58473",
"D  c #5A5A52",
"F  c #4A4B42",
"G  c #B5947B",
"H  c #B5A594",
"J  c #525242",
"K  c #A5735A",
"L  c #6B524A",
"P  c #946B5A",
"I  c #947B73",
"U  c gray39",
"Y  c #9C735A",
"T  c #735A52",
"R  c #102921",
"E  c #634231",
"W  c #CE9C8C",
"Q  c #CEA594",
"!  c #B5A59C",
"~  c #A59484",
"^  c #316B94",
"/  c #C69C7B",
"(  c #EFE7E7",
")  c #316384",
"_  c #9C7363",
"`  c #C69C8C",
"'  c #6B5239",
"]  c #5A4A4A",
"[  c #5A4231",
"{  c #AD9C8C",
"}  c #AD9484",
"|  c #293939",
" . c #8C7B6B",
".. c #5A4A42",
"X. c #393942",
"o. c #182929",
"O. c #BDADA5",
"+. c #4A524A",
"@. c #DEDED6",
"#. c #8C736B",
"$. c #D6D6CE",
"%. c #E7E7DE",
"&. c #7B6B63",
"*. c #929C9C",
"=. c #293A43",
"-. c #845A42",
";. c #7B5A42",
":. c #947B7B",
">. c #8C7D73",
",. c #634A4A",
"<. c #CE9C84",
"1. c #CEAD9C",
"2. c #9C634A",
"3. c #7B736B",
"4. c #848C8C",
"5. c gray29",
"6. c #BD948C",
"7. c #804A42",
"8. c gray32",
"9. c #313121",
"0. c #9C7B6B",
"q. c #C6BDB5",
"w. c #313942",
"e. c #8C847B",
"r. c #E7E7E7",
"t. c #B5ADA5",
"y. c #94948C",
"u. c #8C9494",
"i. c #393939",
"p. c #C6A594",
"a. c #523929",
"s. c #B5BFBD",
"d. c #D6AD9C",
"f. c #A5948C",
"g. c #5A6364",
"h. c #312921",
"j. c #21313B",
"k. c #D8BDA5",
"l. c gray71",
"z. c #846B6B",
"x. c #CECEC6",
"c. c gray87",
"v. c #BD8C73",
"b. c gray45",
"n. c #9C6352",
"m. c #847B7B",
"M. c #D6B59C",
"N. c #636A6B",
"B. c #CECECE",
"V. c #7B7B7B",
"C. c #5A5242",
"Z. c #BDADAD",
"A. c #9C5249",
"S. c #394A52",
"D. c #C68C73",
"F. c #D6B5A5",
"G. c #4A312F",
"H. c #A59C9C",
"J. c #C6B5AD",
"K. c #7B7373",
"L. c #525A63",
"P. c #7B8384",
"I. c #31394A",
"U. c gray97",
"Y. c #C6C6C6",
"T. c #CEBDAD",
"R. c #A5A5A5",
"E. c #734731",
"W. c #C6D6D6",
"Q. c #6B5231",
"!. c #393121",
"~. c #39424A",
"^. c #CEC6BD",
"/. c #7B4939",
"(. c #B59473",
"). c #295273",
"_. c #735239",
"`. c #C6ADA5",
"'. c #BD9473",
"]. c #874539",
"[. c #A5ADAD",
"{. c #182121",
"}. c #213F57",
"|. c #4A5E67",
" X c #DEC6AD",
".X c #42525A",
"XX c #633929",
"oX c #C6CECE",
"OX c #734A39",
"+X c #315273",
"@X c #D6CEBD",
"#X c #D6C6B5",
"$X c #29597B",
"%X c #4A4252",
"&X c #EFEFEF",
"*X c #B5B5AD",
"=X c #636777",
"-X c #425263",
";X c #717986",
":X c #426B8C",
">X c #7B8494",
",X c #7B4229",
"<X c #BD848C",
"1X c #5A3121",
"2X c #8CA5AD",
"3X c #B5737B",
"4X c #5A4263",
"5X c #634A6B",
"6X c #526373",
"7X c #4A6B84",
"8X c black",
"9X c #800000",
"0X c #008000",
"qX c #808000",
"wX c navy",
"eX c #800080",
"rX c #008080",
"tX c #C0C0C0",
"yX c #C0DCC0",
"uX c #A4C8F0",
"iX c #B3353F",
"pX c #4F171C",
"aX c #ECBDC0",
"sX c black",
"dX c black",
"fX c black",
"gX c black",
"hX c black",
"jX c black",
"kX c black",
"lX c black",
"zX c black",
"xX c black",
"cX c black",
"vX c black",
"bX c black",
"nX c black",
"mX c black",
"MX c black",
"NX c black",
"BX c black",
"VX c black",
"CX c black",
"ZX c black",
"AX c black",
"SX c black",
"DX c #FFFBF0",
"FX c #A0A0A4",
"GX c #808080",
"HX c red",
"JX c green",
"KX c yellow",
"LX c blue",
"PX c magenta",
"IX c cyan",
"UX c white",
/* pixels */
"iXiXiXiXiXiXiXiXiXiXiXiXiXiXiXiXiXiXiXiXiXiXiXiXiXiXiXiXiXiXiXiXiXiXiXiXiXiXiXiXiXiXiXiXiXiXiXiXiXiXiXiXiXiXiXiXiXiXiXiX",
"iXiXiXiXiXiXiXiXiXiXiXiXiXiXiXiXiXiXiXiXiXiXiXiXiXiXiXiXiXiXiXiXiXiXiXiXiXiXiXiXiXiXiXiXiXiXiXiXiXiXiXiXiXiXiXiXiXiXiXiX",
"iXiXiXiXiXiXiXiXiXiXiXiXiXiXiXiXiXiXiXiXiXiXiXiXiXiX5 1 1 = 5 5 5 5 iXiXiXiXiXiXiXiXiXiXiXiXiXiXiXiXiXiXiXiXiXiXiXiXiXiX",
"iXiXiXiXiXiXiXiXiXiXiXiXiXiXiXiXiXiXiXiXiXiXiX= = = = = = ; o.= ; = = - 5 iXiXiXiXiXiXiXiXiXiXiXiXiXiXiXiXiXiXiXiXiXiXiX",
"iXiXiXiXiXiXiXiXiXiXiXiXiXiXiXiXiXiXiXiXiX= = = 1 - ; ; ; = ; ; ; ; ; ; ; 8 iXiXiXiXiXiXiXiXiXiXiXiXiXiXiXiXiXiXiXiXiXiX",
"iXiXiXiXiXiXiXiXiXiXiXiXiXiXiXiXiXiXiX1 1 o.; - 1 ; ; ; = - - 1 - ; ; ; ; ; = iXiXiXiXiXiXiXiXiXiXiXiXiXiXiXiXiXiXiXiXiX",
"iXiXiXiXiXiXiXiXiXiXiXiXiXiXiXiXiXiX= 1 ; ; ; o.1 1 ; ; R ; ; = 1 ; = ; o.; ; ; iXiXiXiXiXiXiXiXiXiXiXiXiXiXiXiXiXiXiXiX",
"iXiXiXiXiXiXiXiXiXiXiXiXiXiXiXiXiX1 ; ; - ; ; ; 1 - ; ; 1 ; ; - 1 1 R ; - 1 1 ; ; iXiXiXiXiXiXiXiXiXiXiXiXiXiXiXiXiXiXiX",
"iXiXiXiXiXiXiXiXiXiXiXiXiXiXiX5 - 1 - - - ; ; 1 ; ; ; ; ; ; ; 1 - ; ; - ; = = ; ; = iXiXiXiXiXiXiXiXiXiXiXiXiXiXiXiXiXiX",
"iXiXiXiXiXiXiXiXiXiXiXiXiXiXiX; - 1 - ; ; = - ; - - ; 1 - - = ; ; - ; ; 1 ; 1 1 ; = iXiXiXiXiXiXiXiXiXiXiXiXiXiXiXiXiXiX",
"iXiXiXiXiXiXiXiXiXiXiXiXiXiX1 ; = ; - = 1 ; ; ; ; ; - ; ; - ; ; ; 1 ; ; 1 ; ; = 1 1 1 iXiXiXiXiXiXiXiXiXiXiXiXiXiXiXiXiX",
"iXiXiXiXiXiXiXiXiXiXiXiXiX= ; 1 - ; 1 1 ; ; ; - ; ; ; 1 ; 1 = = ; ; ; 1 R ; - - 1 ; ; | iXiXiXiXiXiXiXiXiXiXiXiXiXiXiXiX",
"iXiXiXiXiXiXiXiXiXiXiXiX= ; - = = ; = = = ; 1 ; = - ; 1 - ; ; 1 ; ; - ; - ; = = = = = = iXiXiXiXiXiXiXiXiXiXiXiXiXiXiXiX",
"iXiXiXiXiXiXiXiXiXiXiXiX; - 1 - - 1 = 1 = ; = 1 - - = ; ; - 1 ; ; ; 1 - - ; = = > 3 = 1 8 iXiXiXiXiXiXiXiXiXiXiXiXiXiXiX",
"iXiXiXiXiXiXiXiXiXiXiX= - ; - - ; o.= = ; = = ; o.= = = = ; ; ; ; = - 1 1 - < = < 3 C 1 = iXiXiXiXiXiXiXiXiXiXiXiXiXiXiX",
"iXiXiXiXiXiXiXiXiXiXiX= 1 ; ; 1 ; - - = = - = ; = = = = = = - = 1 = - < = = > 3 > > 3 = > 8 iXiXiXiXiXiXiXiXiXiXiXiXiXiX",
"iXiXiXiXiXiXiXiXiXiX| = ; - ; 1 = ; = 1 1 ; ; = = = = = > > > = - = = > = 3 > 3 > 3 > < 8 8 iXiXiXiXiXiXiXiXiXiXiXiXiXiX",
"iXiXiXiXiXiXiXiXiXiX= = ; ; - = = - = 1 1 - = = < < q 9 C 3 < Z < 8 8 3 3 Z 7 Z Z Z = = > > iXiXiXiXiXiXiXiXiXiXiXiXiXiX",
"iXiXiXiXiXiXiXiXiXiX1 = - - = = = ; 1 = = = < < < = > ..J 3 3 > 3 3 > 8 > , = < = Z = - , > iXiXiXiXiXiXiXiXiXiXiXiXiXiX",
"iXiXiXiXiXiXiXiXiXiX= 1 ; ; ; 1 1 1 1 ; = - < = > = t e ..3 > > > > 8 = q < = = - = 1 - = 8 > iXiXiXiXiXiXiXiXiXiXiXiXiX",
"iXiXiXiXiXiXiXiXiXiX1 ; 1 1 - ; ; ; = ; 1 = < = < < J j d > = = = = = = > = 1 = = = = 1 = > 5 iXiXiXiXiXiXiXiXiXiXiXiXiX",
"iXiXiXiXiXiXiXiXiXiX= - ; 1 = 1 - - 1 - ; = = = q > C 6 c = = , , = = = > g = = = = = - - < = iXiXiXiXiXiXiXiXiXiXiXiXiX",
"iXiXiXiXiXiXiXiXiXiX= = ; - ; - ; 1 ; - = = < < < 9 2 w y > > g 8 > t 9 d 4 b b = - ; ; - = = =.iXiXiXiXiXiXiXiXiXiXiXiX",
"iXiXiXiXiXiXiXiXiXiX8 - ; 1 ; ; ; ; 1 = q < < b ..e P i x z z v z v i 0 p.{ #.6 C < = = - = = , iXiXiXiXiXiXiXiXiXiXiXiX",
"iXiXiXiXiXiXiXiXiXiX| = ; - - - ; ; = = C t 2 2 b C.e e 6 w 0 p.Q ` G z P y 6 z v e = = - - - | iXiXiXiXiXiXiXiXiXiXiXiX",
"iXiXiXiXiXiXiXiXiXiXiX- ; ; ; ; - ; ; < 9 9 d e 6 a 6 P 6 a S Q 1.` G w v I x G G _ y < = - = iXiXiXiXiXiXiXiXiXiXiXiXiX",
"iXiXiXiXiXiXiXiXiXiXiX1 1 = - ; - - < 2 9 b L 6 j L t t e e z W 1.` v c > 7 i.T 6 _ v > < - = iXiXiXiXiXiXiXiXiXiXiXiXiX",
"iXiXiXiXiXiXiXiXiXiXiX= ; ; ; ; R - 2 t t C d C > X.>  .e f y 0 Q 0 i I r C r d d z S e = = 8 iXiXiXiXiXiXiXiXiXiXiXiXiX",
"iXiXiXiXiXiXiXiXiXiXiX= 1 = = = = = t b b b t 9 T T  .G w f e S d.0 S ` S 0 ` N N 0 0 6 < = iXiXiXiXiXiXiXiXiXiXiXiXiXiX",
"iXiXiXiXiXiXiXiXiXiXiXiX= 1 > = 1 > t b e c e y 0.w w w 6 4 4 z 0 v.m 0 N 0 D.<.W 0 0 P 8 iXiXiXiXiXiXiXiXiXiXiXiXiXiXiX",
"iXiXiXiXiXiXiXiXiXiXiXiX5 > b = = > t b f j y _ n n n _ y y 4 M v.D.v.D.<.<.N <.W / S 6 2 iXiXiXiXiXiXiXiXiXiXiXiXiXiXiX",
"iXiXiXiXiXiXiXiXiXiXiXiXiX8 b 2 = > 2 2 d e M _ n p K n Y -.7.2.K D.m N W W <./ / D.S e n.iXiXiXiXiXiXiXiXiXiXiXiXiXiXiX",
"iXiXiXiXiXiXiXiXiXiXiXiXiX> h b f < 2 2 h f 4 M p p m v.z c f Y '.<.m / d.d.d.d.<.D.n _ v.iXiXiXiXiXiXiXiXiXiXiXiXiXiXiX",
"iXiXiXiXiXiXiXiXiXiXiXiXiXiX..2 e C 9 2 2 f -.M K p D./ G f ' y 0 W m v.W d.d.d.Q <.m S _ iXiXiXiXiXiXiXiXiXiXiXiXiXiXiX",
"iXiXiXiXiXiXiXiXiXiXiXiXiXiXiXt 2 L 9 9 2 h 4 M p m <.N P c 4 J 6 6 t S <.W W W <.D.p a iXiXiXiXiXiXiXiXiXiXiXiXiXiXiXiX",
"iXiXiXiXiXiXiXiXiXiXiXiXiXiXiXt C b C 9 2 b c P _ S / N y f f e c _ 0 N d.W / 0 0 S Y iXiXiXiXiXiXiXiXiXiXiXiXiXiXiXiXiX",
"iXiXiXiXiXiXiXiXiXiXiXiXiXiXiXiXJ t 3 9 2 2 h e P v S m n S G 0 W N d.Q W <.0 w S p _ iXiXiXiXiXiXiXiXiXiXiXiXiXiXiXiXiX",
"iXiXiXiXiXiXiXiXiXiXiXiXiXiXiXiX8 = = 9 2 2 b d 4 Y P Y _ n S N d.<.d.W N i G S S m z iXiXiXiXiXiXiXiXiXiXiXiXiXiXiXiXiX",
"iXiXiXiXiXiXiXiXiXiXiXiXiXiXiXiXiX= = > 2 b L d 4 a y e 6 P n S 0 N n n _ j P W 0 n P iXiXiXiXiXiXiXiXiXiXiXiXiXiXiXiXiX",
"iXiXiXiXiXiXiXiXiXiXiXiXiXiXiXiXiXiX= > 9 b d f y G 4 9 2 2 [ Q.' c [ 6 s _ Q W 0 n iXiXiXiXiXiXiXiXiXiXiXiXiXiXiXiXiXiX",
"iXiXiXiXiXiXiXiXiXiXiXiXiXiXiXiXiXiX5 5 3 t h f e x G z h c y ' { 6.} A.p ` ` W G _ iXiXiXiXiXiXiXiXiXiXiXiXiXiXiXiXiXiX",
"iXiXiXiXiXiXiXiXiXiXiXiXiXiXiXiXiXiXiXiX8 9 b d f 6 z _ a e 4 K n n D.n m N ` N n iXiXiXiXiXiXiXiXiXiXiXiXiXiXiXiXiXiXiX",
"iXiXiXiXiXiXiXiXiXiXiXiXiXiXiXiXiXiXiXiX> > 9 C ..e 6 6 y y y 4 A.A.Y 0 N / i G ! iXiXiXiXiXiXiXiXiXiXiXiXiXiXiXiXiXiXiX",
"iXiXiXiXiXiXiXiXiXiXiXiXiXiXiXiXiXiXiXiX3 9 < 9 t d e 4 y a a w i N W W W N 0 a iXiXiXiXiXiXiXiXiXiXiXiXiXiXiXiXiXiXiXiX",
"iXiXiXiXiXiXiXiXiXiXiXiXiXiXiXiXiXiXiXiX9 C 3 g 9 t b d j _ n / ` W d.d.Q 0 _ iXiXiXiXiXiXiXiXiXiXiXiXiXiXiXiXiXiXiXiXiX",
"iXiXiXiXiXiXiXiXiXiXiXiXiXiXiXiXiXiXiXiX3 C C.t 9 > 9 t h y v 0 <.` W W N v j iXiXiXiXiXiXiXiXiXiXiXiXiXiXiXiXiXiXiXiXiX",
"iXiXiXiXiXiXiXiXiXiXiXiXiXiXiXiXiXiXiX8.< t C.C.C.t > 3 2 d j _ 0 S S G v 0.x iXiXiXiXiXiXiXiXiXiXiXiXiXiXiXiXiXiXiXiXiX",
"iXiXiXiXiXiXiXiXiXiXiXiXiXiXiXiXiXiX- - < t b ,.s d C C 9 > 2 C.T L C.,.0.G w iXiXiXiXiXiXiXiXiXiXiXiXiXiXiXiXiXiXiXiXiX",
"iXiXiXiXiXiXiXiXiXiXiXiXiXiXiXiXiXiX- 1 > 2 b d d d d b b J C 9 > 9 a w x G w 8 iXiXiXiXiXiXiXiXiXiXiXiXiXiXiXiXiXiXiXiX",
"iXiXiXiXiXiXiXiXiXiXiXiXiXiXiXiX= - - ; = 2 C d d d d C.....C b 6 0.x w 0 G v 2 = = = iXiXiXiXiXiXiXiXiXiXiXiXiXiXiXiXiX",
"iXiXiXiXiXiXiXiXiXiXiXiXiXiXiX= - 1 - ; - = C C.d b b ..J C.e z x x x G i 0 v v < = = = < iXiXiXiXiXiXiXiXiXiXiXiXiXiXiX",
"iXiXiXiXiXiXiXiXiXiXiXiXiXiX8 - 1 - ; ; - = 1 C C.C.J b f 6 0.w w x w G i 0 w x < = = = = = = iXiXiXiXiXiXiXiXiXiXiXiXiX",
"iXiXiXiXiXiXiXiXiXiXiXiXiX= - = - - - - - - - - 3 d L 4 0.w w v w v x i ` 0 x S < 8 - = = - = 1 = iXiXiXiXiXiXiXiXiXiXiX",
"iXiXiXiXiXiXiXiXiXiXiX5 = 1 1 1 - ; 1 ; = - - = ; ,  .x 0 G x x v x 0 ` ` i G G < = = = , = = = = = iXiXiXiXiXiXiXiXiXiX",
"iXiXiXiXiXiXiXiXiXiX- - ; ; = - - - - - ; - - 1 - ; - 7 } N N i 0 i Q W Q ` i a < < - - = = = = = = = = 5 iXiXiXiXiXiXiX",
"iXiXiXiXiXiXiXiX= = 1 1 - 1 ; ; = ; ; - 1 - = ; = - 1 - = < &.6.W Q 1.Q 1.p.0 8 = = = = = = = - = 1 = = = = , iXiXiXiXiX",
"iXiXiXiXiXiX5 = 1 = = - ; ; ; ; - 1 - - - 1 - 1 = = = ; - = = = 8 r H 1.d.0 3 < = = = 1 = - - 1 1 1 = = = ; = 1 iXiXiXiX",
"iXiXiXiXiX1 1 = 1 1 1 1 ; ; - 1 ; ; = = - 1 = ; ; - = = ; 1 1 = 5 5 , 7 I k - = 1 = ; = = = = - 1 - = = 1 = 1 1 1 iXiXiX",
"iXiXiXiX= ; = - 1 = = = ; ; 1 ; - ; - - = 1 = - = - - = 1 = = 5 = 5 5 7 &.1 = < = = 1 = = = 1 1 = ; - = = ; = o.1 = iXiX",
"iXiXiX= ; - ; = 1 - - - 1 - - - - - = ; ; ; 1 - - - = = ; ; = = , 3.@X#X .= = = = = - = 1 - 1 1 = = 1 = = = = = = = 1 iX"
};
