/* XPM */
static char *pau203a[] = {
/* columns rows colors chars-per-pixel */
"60 60 256 2 ",
"   c black",
".  c #800000",
"X  c #008000",
"o  c #808000",
"O  c navy",
"+  c #800080",
"@  c #008080",
"#  c #C0C0C0",
"$  c #C0DCC0",
"%  c #A4C8F0",
"&  c white",
"*  c black",
"=  c #213129",
"-  c #213121",
";  c #182921",
":  c #102918",
">  c #313931",
",  c #293131",
"<  c #313929",
"1  c #183129",
"2  c #4A4231",
"3  c #394239",
"4  c #84634A",
"5  c #213131",
"6  c #846B5A",
"7  c #313939",
"8  c #293931",
"9  c #423931",
"0  c #BD947B",
"q  c #313129",
"w  c #A58473",
"e  c #735A4A",
"r  c #6B635A",
"t  c #4A4239",
"y  c #846B52",
"u  c #9C8C7B",
"i  c #B59C84",
"p  c #AD7B63",
"a  c #947363",
"s  c #635A52",
"d  c #634A42",
"f  c #6B5242",
"g  c #312931",
"h  c #634A39",
"j  c #7B6452",
"k  c #4A3929",
"l  c #736B63",
"z  c #9C7B63",
"x  c #AD8C7B",
"c  c #735242",
"v  c #A5846B",
"b  c #5A4A39",
"n  c #AD7A6B",
"m  c #BD846B",
"M  c #9C6B52",
"N  c #C69C84",
"B  c #A59C94",
"V  c #846B63",
"C  c #4A4A39",
"Z  c gray26",
"A  c #293139",
"S  c #B58473",
"D  c #5A5A52",
"F  c #4A4B42",
"G  c #B5947B",
"H  c #B5A594",
"J  c #525242",
"K  c #A5735A",
"L  c #6B524A",
"P  c #946B5A",
"I  c #947B73",
"U  c gray39",
"Y  c #9C735A",
"T  c #735A52",
"R  c #102921",
"E  c #634231",
"W  c #CE9C8C",
"Q  c #CEA594",
"!  c #B5A59C",
"~  c #A59484",
"^  c #316B94",
"/  c #C69C7B",
"(  c #EFE7E7",
")  c #316384",
"_  c #9C7363",
"`  c #C69C8C",
"'  c #6B5239",
"]  c #5A4A4A",
"[  c #5A4231",
"{  c #AD9C8C",
"}  c #AD9484",
"|  c #293939",
" . c #8C7B6B",
".. c #5A4A42",
"X. c #393942",
"o. c #182929",
"O. c #BDADA5",
"+. c #4A524A",
"@. c #DEDED6",
"#. c #8C736B",
"$. c #D6D6CE",
"%. c #E7E7DE",
"&. c #7B6B63",
"*. c #929C9C",
"=. c #293A43",
"-. c #845A42",
";. c #7B5A42",
":. c #947B7B",
">. c #8C7D73",
",. c #634A4A",
"<. c #CE9C84",
"1. c #CEAD9C",
"2. c #9C634A",
"3. c #7B736B",
"4. c #848C8C",
"5. c gray29",
"6. c #BD948C",
"7. c #804A42",
"8. c gray32",
"9. c #313121",
"0. c #9C7B6B",
"q. c #C6BDB5",
"w. c #313942",
"e. c #8C847B",
"r. c #E7E7E7",
"t. c #B5ADA5",
"y. c #94948C",
"u. c #8C9494",
"i. c #393939",
"p. c #C6A594",
"a. c #523929",
"s. c #B5BFBD",
"d. c #D6AD9C",
"f. c #A5948C",
"g. c #5A6364",
"h. c #312921",
"j. c #21313B",
"k. c #D8BDA5",
"l. c gray71",
"z. c #846B6B",
"x. c #CECEC6",
"c. c gray87",
"v. c #BD8C73",
"b. c gray45",
"n. c #9C6352",
"m. c #847B7B",
"M. c #D6B59C",
"N. c #636A6B",
"B. c #CECECE",
"V. c #7B7B7B",
"C. c #5A5242",
"Z. c #BDADAD",
"A. c #9C5249",
"S. c #394A52",
"D. c #C68C73",
"F. c #D6B5A5",
"G. c #4A312F",
"H. c #A59C9C",
"J. c #C6B5AD",
"K. c #7B7373",
"L. c #525A63",
"P. c #7B8384",
"I. c #31394A",
"U. c gray97",
"Y. c #C6C6C6",
"T. c #CEBDAD",
"R. c #A5A5A5",
"E. c #734731",
"W. c #C6D6D6",
"Q. c #6B5231",
"!. c #393121",
"~. c #39424A",
"^. c #CEC6BD",
"/. c #7B4939",
"(. c #B59473",
"). c #295273",
"_. c #735239",
"`. c #C6ADA5",
"'. c #BD9473",
"]. c #874539",
"[. c #A5ADAD",
"{. c #182121",
"}. c #213F57",
"|. c #4A5E67",
" X c #DEC6AD",
".X c #42525A",
"XX c #633929",
"oX c #C6CECE",
"OX c #734A39",
"+X c #315273",
"@X c #D6CEBD",
"#X c #D6C6B5",
"$X c #29597B",
"%X c #4A4252",
"&X c #EFEFEF",
"*X c #B5B5AD",
"=X c #636777",
"-X c #425263",
";X c #717986",
":X c #426B8C",
">X c #7B8494",
",X c #7B4229",
"<X c #BD848C",
"1X c #5A3121",
"2X c #8CA5AD",
"3X c #B5737B",
"4X c #5A4263",
"5X c #634A6B",
"6X c #526373",
"7X c #4A6B84",
"8X c black",
"9X c #800000",
"0X c #008000",
"qX c #808000",
"wX c navy",
"eX c #800080",
"rX c #008080",
"tX c #C0C0C0",
"yX c #C0DCC0",
"uX c #A4C8F0",
"iX c #B3353F",
"pX c #4F171C",
"aX c #ECBDC0",
"sX c black",
"dX c black",
"fX c black",
"gX c black",
"hX c black",
"jX c black",
"kX c black",
"lX c black",
"zX c black",
"xX c black",
"cX c black",
"vX c black",
"bX c black",
"nX c black",
"mX c black",
"MX c black",
"NX c black",
"BX c black",
"VX c black",
"CX c black",
"ZX c black",
"AX c black",
"SX c black",
"DX c #FFFBF0",
"FX c #A0A0A4",
"GX c #808080",
"HX c red",
"JX c green",
"KX c yellow",
"LX c blue",
"PX c magenta",
"IX c cyan",
"UX c white",
/* pixels */
"iXiXiXiXiXiXiXiXiXiXiXiXiXiXiXiXiXiXiXiXiXiXiXiXiXiXiXiXiXiXiXiXiXiXiXiXiXiXiXiXiXiXiXiXiXiXiXiXiXiXiXiXiXiXiXiXiXiXiXiX",
"iXiXiXiXiXiXiXiXiXiXiXiXiXiXiXiXiXiXiXiXiXiXiXiXm.iXr +.U l U r 4.+.P.V.iXiXiXiXiXiXiXiXiXiXiXiXiXiXiXiXiXiXiXiXiXiXiXiX",
"iXiXiXiXiXiXiXiXiXiXiXiXiXiXiXiXiXiXiXiX>.l 8.3 F 3 C 3 +.F 8.+.D s D r r r l iXiXiXiXiXiXiXiXiXiXiXiXiXiXiXiXiXiXiXiXiX",
"iXiXiXiXiXiXiXiXiXiXiXiXiXiXiXiXiXiX3.l s s Z 3 3 5.3 C r F 3.r U +.D D D D D D iXiXiXiXiXiXiXiXiXiXiXiXiXiXiXiXiXiXiXiX",
"iXiXiXiXiXiXiXiXiXiXiXiXiXiXiXiXe.l r r D F F 3 5.3 8.5.F +.l D r l 3.U r +.s D +.iXiXiXiXiXiXiXiXiXiXiXiXiXiXiXiXiXiXiX",
"iXiXiXiXiXiXiXiXiXiXiXiXiXiXiXy.r r l D D > F X.s 3 +.D +.l +.U D m.3.l D +.Z r 8.8.r iXiXiXiXiXiXiXiXiXiXiXiXiXiXiXiXiX",
"iXiXiXiXiXiXiXiXiXiXiXiXiXiXu r r l l U C 3 C r +.J C J K.D r F l r m.l r 3.] F F +.3 Z iXiXiXiXiXiXiXiXiXiXiXiXiXiXiXiX",
"iXiXiXiXiXiXiXiXiXiXiXiXiXiXl r D s e.l +.F t l D l 3 Z l D Z C l ] l D Z F J +.F ] +.F iXiXiXiXiXiXiXiXiXiXiXiXiXiXiXiX",
"iXiXiXiXiXiXiXiXiXiXiXiXiXl r r ] D m.l +.Z D F 3.U r s 8.D < s r D Z g g 3 > 3 9 Z 8.D J iXiXiXiXiXiXiXiXiXiXiXiXiXiXiX",
"iXiXiXiXiXiXiXiXiXiXiXiXiXl D D +.F 3.r J s 3 D +.z.+.l +.3 < s s 3 > = = = q 3 t F D 8.l s iXiXiXiXiXiXiXiXiXiXiXiXiXiX",
"iXiXiXiXiXiXiXiXiXiXiXiXiXs J F Z F 3.l +.+.9 r F m.] U +.> C J ] 9 C q = = = < 9 3 Z +.l +.iXiXiXiXiXiXiXiXiXiXiXiXiXiX",
"iXiXiXiXiXiXiXiXiXiXiXiXr 3 C 3 3 > l 3.r F 9 J 3 l s l 3 C J C.s C.C.C < 9 < < 3 3 3 F 3.b.l iXiXiXiXiXiXiXiXiXiXiXiXiX",
"iXiXiXiXiXiXiXiXiXiXiXiXC 9 C C 9.< C l 3.D t F t r r r F F J L r L d j 4 y y f C C F F D l D iXiXiXiXiXiXiXiXiXiXiXiXiX",
"iXiXiXiXiXiXiXiXiXiXiXiX3 < 3 > < > C L 3.s t C C s r r s C.C.d e Y z n S m p v ' J s ] s m.D iXiXiXiXiXiXiXiXiXiXiXiXiX",
"iXiXiXiXiXiXiXiXiXiXiXiXC 3 > > > 2 h f e T f b C L r r T j a v m 0 / N D.D.'.v.n ' ..r K.4.l 3.iXiXiXiXiXiXiXiXiXiXiXiX",
"iXiXiXiXiXiXiXiXiXiXiXiXF 3 < 3 < 2 h ' f f f f f e j 6 6 P n 0 / <.N / / / D./ '.z T r u y.K.l iXiXiXiXiXiXiXiXiXiXiXiX",
"iXiXiXiXiXiXiXiXiXiXiXiXiX< 3 3 < E f f _.c _._.-.4 M M P n / N N / / / / <./ / D.'.e l y.y.l l ~ iXiXiXiXiXiXiXiXiXiXiX",
"iXiXiXiXiXiXiXiXiXiXiXiXiX9 3 9 9 E ' f _.;.-.M K p v m './ N N <./ <.<.<.<./ / / 0 z :.y.m.l 3.e.iXiXiXiXiXiXiXiXiXiXiX",
"iXiXiXiXiXiXiXiXiXiXiXiXiX3 < 3 2 h ' ' c -.2.K p m S 0 / N <.<.W d.Q d.M.M.W <./ '.S V :.e.l l K.iXiXiXiXiXiXiXiXiXiXiX",
"iXiXiXiXiXiXiXiXiXiXiXiXiX3 9 3 2 h ' h _.-.2.K p v./ / N W <.W W M.M.M.k.M.d.<./ 0 n u 3.m.m.K.m.iXiXiXiXiXiXiXiXiXiXiX",
"iXiXiXiXiXiXiXiXiXiXiXiXiXD 9 9 2 h ' ' c 4 M p p v.0 / W W W W W d.d.M.k.M.d.W / 0 z a l l e.e.iXiXiXiXiXiXiXiXiXiXiXiX",
"iXiXiXiXiXiXiXiXiXiXiXiXiXJ 3 3 2 [ E ' ;.4 M p m '.'./ <.W <.<.<.W W d.d.M.d.W / '.z a l l m.e.iXiXiXiXiXiXiXiXiXiXiXiX",
"iXiXiXiXiXiXiXiXiXiXiXiXiXr F 3 2 h h ' ;.4 K m m './ N / <.N / / <.W W M.M.d.W / '.K j l >.e.iXiXiXiXiXiXiXiXiXiXiXiXiX",
"iXiXiXiXiXiXiXiXiXiXiXiXiXiX3 < 2 E h ' ;.4 Y p S 0 N W W <.N / / <.d.d.d.d.d.<./ '.m e s >.e.iXiXiXiXiXiXiXiXiXiXiXiXiX",
"iXiXiXiXiXiXiXiXiXiXiXiXiXiXF < h h h f ;.4 y a z S 0 W Q W W N N Q 1.1.1.Q ` W 0 / S 6 J r iXiXiXiXiXiXiXiXiXiXiXiXiXiX",
"iXiXiXiXiXiXiXiXiXiXiXiXiXiX9 q b h h h 2 G.9 C L 6 w S 0 N N 0 S I j L j V a #.G 0 S z C l iXiXiXiXiXiXiXiXiXiXiXiXiXiX",
"iXiXiXiXiXiXiXiXiXiXiXiXiX2 < q E h t < - = q q q q 2 4 Y m 0 _ e b h [ f a a a e n '.z s _ K iXiXiXiXiXiXiXiXiXiXiXiXiX",
"iXiXiXiXiXiXiXiXiXiXiXiXE a.< q ' b 9 k k k 2 ' k k k k _.p Q v -._.' h 4 Y Y x z v 0 v J p p iXiXiXiXiXiXiXiXiXiXiXiXiX",
"iXiXiXiXiXiXiXiXiXiXiXiX[ E 2 2 f d 9 2 q G.> < C e 2 - E '.Q v./.Q.[ < q L 0.y S G 0 S 4 N m iXiXiXiXiXiXiXiXiXiXiXiXiX",
"iXiXiXiXiXiXiXiXiXiXiXiXf 2 k 2 ' h k 2 q k a.' a a c 9.Q.v.<./ 0 /.7.OXf e h 7.0 N '.S K D.m iXiXiXiXiXiXiXiXiXiXiXiXiX",
"iXiXiXiXiXiXiXiXiXiXiXiXiXk < !.' f h 2 [ [ e y 4 y b k -.m <.<.N -.-.-._ G G 0 <.W 0 '.K m D.iXiXiXiXiXiXiXiXiXiXiXiXiX",
"iXiXiXiXiXiXiXiXiXiXiXiXiX< h.k h c Q.c _.E.Q.-.-./.E E 2.D.<.W <.N m K p m <.Q W W 0 0 / m <.iXiXiXiXiXiXiXiXiXiXiXiXiX",
"iXiXiXiXiXiXiXiXiXiXiXiXiXk q k f c c 4 Y z _ p n.7.E ' n.D.W <.W <.<./ / <.d.M.d.Q N S W p D.iXiXiXiXiXiXiXiXiXiXiXiXiX",
"iXiXiXiXiXiXiXiXiXiXiXiXiXa.k q c f c y K p n K 4 ' 2 _.M N W W <.D.N W Q d.k.k.d.W 0 m D./ D.iXiXiXiXiXiXiXiXiXiXiXiXiX",
"iXiXiXiXiXiXiXiXiXiXiXiXiX[ ' k f ' c -.M p p n.h k 2 c M W Q <.<.m -.p N k.F.k.Q W / n d.W N iXiXiXiXiXiXiXiXiXiXiXiXiX",
"iXiXiXiXiXiXiXiXiXiXiXiXiXc 2 k f h E f 2.M M ' q 9.E ' M N W N / N 0 _.2.N W d.Q W / S d.Q 0 iXiXiXiXiXiXiXiXiXiXiXiXiX",
"iXiXiXiXiXiXiXiXiXiXiXiXiXf 2 k d 2 a.h ;.4 7.k < < 2 E 4 m 1.D.n i p.G OXM v.<.N 0 0 '.W Q l iXiXiXiXiXiXiXiXiXiXiXiXiX",
"iXiXiXiXiXiXiXiXiXiXiXiXiXiX2 G.h 2 k 2 ' ' 2 < q 9.< < /.M S a x 0 { 6.x E M (.0 0 0 / Q w D iXiXiXiXiXiXiXiXiXiXiXiXiX",
"iXiXiXiXiXiXiXiXiXiXiXiXiXiX&.9 h 2 k 2 ' [ 2 < q q 9.9.k h e v i i G w w v Q.(.0 / 0 a r r l iXiXiXiXiXiXiXiXiXiXiXiXiX",
"iXiXiXiXiXiXiXiXiXiXiXiXiXiXiXC b 2 k 2 4 h 2 < < k k E -._ z G S _ y 6 P v 4 (.0 N G ] l r >.iXiXiXiXiXiXiXiXiXiXiXiXiX",
"iXiXiXiXiXiXiXiXiXiXiXiXiXiXiXiXC 2 2 2 M 4 f q = < a.E ;./.p v./ N M k M z m 0 N N x J s r iXiXiXiXiXiXiXiXiXiXiXiXiXiX",
"iXiXiXiXiXiXiXiXiXiXiXiXiXiXiXiXiXb [ 2 ;._ 4 h 2 < h z i ` @XW F.x n.'.x n / i N 0 0.iXl iXiXiXiXiXiXiXiXiXiXiXiXiXiXiX",
"iXiXiXiXiXiXiXiXiXiXiXiXiXiXiXiXiXiX2 2 [ 6 4 c 2 [ OXM K p 0 p m K m i 0 S 0 0 0 (.f.iXiXiXiXiXiXiXiXiXiXiXiXiXiXiXiXiX",
"iXiXiXiXiXiXiXiXiXiXiXiXiXiXiXiXiXiX2 2 9 d 4 4 2 2 E 7.A.K p 6.0 0 i 0 / G G (.(.v iXiXiXiXiXiXiXiXiXiXiXiXiXiXiXiXiXiX",
"iXiXiXiXiXiXiXiXiXiXiXiXiXiXiXiXiXiXiX9 9 2 h 4 c 2 G.E c ;.4 _ S i N / N G n n w iXiXiXiXiXiXiXiXiXiXiXiXiXiXiXiXiXiXiX",
"iXiXiXiXiXiXiXiXiXiXiXiXiXiXiXiXiXiXiXC < g 2 c 4 c ' e e 6 z S 0 0 / N N x v x _ iXiXiXiXiXiXiXiXiXiXiXiXiXiXiXiXiXiXiX",
"iXiXiXiXiXiXiXiXiXiXiXiXiXiXiXiXiXiXiXiXk < < t 4 M 4 Y z z m 0 N / N ` G v n a 0.3 iXiXiXiXiXiXiXiXiXiXiXiXiXiXiXiXiXiX",
"iXiXiXiXiXiXiXiXiXiXiXiXiXiXiXiXiXiXiXiX9 k > 2 f y y Y z p 0 / N W ` i x v z z u.Z 3 iXiXiXiXiXiXiXiXiXiXiXiXiXiXiXiXiX",
"iXiXiXiXiXiXiXiXiXiXiXiXiXiXiXiXiXiXiXiXb k 9 2 [ ' y P v S S N ` ` i x z a P 0.R.3 7 X.iXiXiXiXiXiXiXiXiXiXiXiXiXiXiXiX",
"iXiXiXiXiXiXiXiXiXiXiXiXiXiXiXiXiXiXiXiXb 9 9 k 2 2 d 4 _ v n S i G w 6 6 6 0.! L.7 > 3 Z iXiXiXiXiXiXiXiXiXiXiXiXiXiXiX",
"iXiXiXiXiXiXiXiXiXiXiXiXiXiXiXiXiXiXiXiXh 2 k k < < k b d 4 y 6 6 6 T e 4 z H [.X.> > X.X.5.iXiXiXiXiXiXiXiXiXiXiXiXiXiX",
"iXiXiXiXiXiXiXiXiXiXiXiXiXiXiXiXiXiXiXiXd [ 9 k q < < < > > 9 9 2 d d M v 1.l.u.7 7 7 X.X.3 +.iXiXiXiXiXiXiXiXiXiXiXiXiX",
"iXiXiXiXiXiXiXiXiXiXiXiXiXiXiXiXiXiXiXiXd [ 2 < < < < q < < k 2 C.;.Y v 6.s.l.7 > 7 7 w.7 7 X.Z iXiXiXiXiXiXiXiXiXiXiXiX",
"iXiXiXiXiXiXiXiXiXiXiXiXiXiXiXiXiXiXiX8.2 b b < < q q < k 9 2 h 4 Y x #Xx.l.Z w.7 7 7 7 7 7 3 | 3 Z iXiXiXiXiXiXiXiXiXiX",
"iXiXiXiXiXiXiXiXiXiXiXiXiXiXiXiXiX7 < < 9 b [ 2 k 9 k 2 2 h 4 M Y i x.x.R.=X> 7 7 7 7 3 7 7 > = = < > iXiXiXiXiXiXiXiXiX",
"iXiXiXiXiXiXiXiXiXiXiXiXiXiXiX> < < = = l 2 [ 2 2 2 Q.c 4 4 y P i x.^.t.Y.3 7 7 7 7 7 7 7 7 = = = < = 7 iXiXiXiXiXiXiXiX",
"iXiXiXiXiXiXiXiXiXiXiXZ > g , < < - = < K.9 2 2 2 h c 4 y M a ^.x.l.l.x.X.3 3 3 > 7 7 7 8 g = = - = = 8 < 3 iXiXiXiXiXiX",
"iXiXiXiXiXiXiXiXZ > > < < = = = - = = = r  .9 2 k [ ;.y P i x.$.s.s.x.|.7 7 > 7 7 > 7 > > = = - - - = = > 8 7 3 iXiXiXiX",
"iXiXiXiXiXiX7 > 8 8 , = = = = - - = = = 8.>.e.2 2 2 4 w q.x.x.[.q.$.>X> 7 7 7 7 > , g > > = - = - = = = = , 7 8 > 7 iXiX",
"iXiXiX> < 8 g < < = - = = = = = = < = - 3 V.u B 9 2 H ^.x.x.*.^.$.l.> > > 7 , 8 > 8 8 g < = - = = - = = = q 8 > , > > X."
};
