/* XPM */
static char *urs203a[] = {
/* columns rows colors chars-per-pixel */
"60 60 256 2 ",
"   c black",
".  c #800000",
"X  c #008000",
"o  c #808000",
"O  c navy",
"+  c #800080",
"@  c #008080",
"#  c #C0C0C0",
"$  c #C0DCC0",
"%  c #A4C8F0",
"&  c white",
"*  c black",
"=  c #213129",
"-  c #213121",
";  c #182921",
":  c #102918",
">  c #313931",
",  c #293131",
"<  c #313929",
"1  c #183129",
"2  c #4A4231",
"3  c #394239",
"4  c #84634A",
"5  c #213131",
"6  c #846B5A",
"7  c #313939",
"8  c #293931",
"9  c #423931",
"0  c #BD947B",
"q  c #313129",
"w  c #A58473",
"e  c #735A4A",
"r  c #6B635A",
"t  c #4A4239",
"y  c #846B52",
"u  c #9C8C7B",
"i  c #B59C84",
"p  c #AD7B63",
"a  c #947363",
"s  c #635A52",
"d  c #634A42",
"f  c #6B5242",
"g  c #312931",
"h  c #634A39",
"j  c #7B6452",
"k  c #4A3929",
"l  c #736B63",
"z  c #9C7B63",
"x  c #AD8C7B",
"c  c #735242",
"v  c #A5846B",
"b  c #5A4A39",
"n  c #AD7A6B",
"m  c #BD846B",
"M  c #9C6B52",
"N  c #C69C84",
"B  c #A59C94",
"V  c #846B63",
"C  c #4A4A39",
"Z  c gray26",
"A  c #293139",
"S  c #B58473",
"D  c #5A5A52",
"F  c #4A4B42",
"G  c #B5947B",
"H  c #B5A594",
"J  c #525242",
"K  c #A5735A",
"L  c #6B524A",
"P  c #946B5A",
"I  c #947B73",
"U  c gray39",
"Y  c #9C735A",
"T  c #735A52",
"R  c #102921",
"E  c #634231",
"W  c #CE9C8C",
"Q  c #CEA594",
"!  c #B5A59C",
"~  c #A59484",
"^  c #316B94",
"/  c #C69C7B",
"(  c #EFE7E7",
")  c #316384",
"_  c #9C7363",
"`  c #C69C8C",
"'  c #6B5239",
"]  c #5A4A4A",
"[  c #5A4231",
"{  c #AD9C8C",
"}  c #AD9484",
"|  c #293939",
" . c #8C7B6B",
".. c #5A4A42",
"X. c #393942",
"o. c #182929",
"O. c #BDADA5",
"+. c #4A524A",
"@. c #DEDED6",
"#. c #8C736B",
"$. c #D6D6CE",
"%. c #E7E7DE",
"&. c #7B6B63",
"*. c #929C9C",
"=. c #293A43",
"-. c #845A42",
";. c #7B5A42",
":. c #947B7B",
">. c #8C7D73",
",. c #634A4A",
"<. c #CE9C84",
"1. c #CEAD9C",
"2. c #9C634A",
"3. c #7B736B",
"4. c #848C8C",
"5. c gray29",
"6. c #BD948C",
"7. c #804A42",
"8. c gray32",
"9. c #313121",
"0. c #9C7B6B",
"q. c #C6BDB5",
"w. c #313942",
"e. c #8C847B",
"r. c #E7E7E7",
"t. c #B5ADA5",
"y. c #94948C",
"u. c #8C9494",
"i. c #393939",
"p. c #C6A594",
"a. c #523929",
"s. c #B5BFBD",
"d. c #D6AD9C",
"f. c #A5948C",
"g. c #5A6364",
"h. c #312921",
"j. c #21313B",
"k. c #D8BDA5",
"l. c gray71",
"z. c #846B6B",
"x. c #CECEC6",
"c. c gray87",
"v. c #BD8C73",
"b. c gray45",
"n. c #9C6352",
"m. c #847B7B",
"M. c #D6B59C",
"N. c #636A6B",
"B. c #CECECE",
"V. c #7B7B7B",
"C. c #5A5242",
"Z. c #BDADAD",
"A. c #9C5249",
"S. c #394A52",
"D. c #C68C73",
"F. c #D6B5A5",
"G. c #4A312F",
"H. c #A59C9C",
"J. c #C6B5AD",
"K. c #7B7373",
"L. c #525A63",
"P. c #7B8384",
"I. c #31394A",
"U. c gray97",
"Y. c #C6C6C6",
"T. c #CEBDAD",
"R. c #A5A5A5",
"E. c #734731",
"W. c #C6D6D6",
"Q. c #6B5231",
"!. c #393121",
"~. c #39424A",
"^. c #CEC6BD",
"/. c #7B4939",
"(. c #B59473",
"). c #295273",
"_. c #735239",
"`. c #C6ADA5",
"'. c #BD9473",
"]. c #874539",
"[. c #A5ADAD",
"{. c #182121",
"}. c #213F57",
"|. c #4A5E67",
" X c #DEC6AD",
".X c #42525A",
"XX c #633929",
"oX c #C6CECE",
"OX c #734A39",
"+X c #315273",
"@X c #D6CEBD",
"#X c #D6C6B5",
"$X c #29597B",
"%X c #4A4252",
"&X c #EFEFEF",
"*X c #B5B5AD",
"=X c #636777",
"-X c #425263",
";X c #717986",
":X c #426B8C",
">X c #7B8494",
",X c #7B4229",
"<X c #BD848C",
"1X c #5A3121",
"2X c #8CA5AD",
"3X c #B5737B",
"4X c #5A4263",
"5X c #634A6B",
"6X c #526373",
"7X c #4A6B84",
"8X c black",
"9X c #800000",
"0X c #008000",
"qX c #808000",
"wX c navy",
"eX c #800080",
"rX c #008080",
"tX c #C0C0C0",
"yX c #C0DCC0",
"uX c #A4C8F0",
"iX c #B3353F",
"pX c #4F171C",
"aX c #ECBDC0",
"sX c black",
"dX c black",
"fX c black",
"gX c black",
"hX c black",
"jX c black",
"kX c black",
"lX c black",
"zX c black",
"xX c black",
"cX c black",
"vX c black",
"bX c black",
"nX c black",
"mX c black",
"MX c black",
"NX c black",
"BX c black",
"VX c black",
"CX c black",
"ZX c black",
"AX c black",
"SX c black",
"DX c #FFFBF0",
"FX c #A0A0A4",
"GX c #808080",
"HX c red",
"JX c green",
"KX c yellow",
"LX c blue",
"PX c magenta",
"IX c cyan",
"UX c white",
/* pixels */
"iXiXiXiXiXiXiXiXiXiXiXiXiXiXiXiXiXiXiXiXiXiXiXiXiXiXiXiXiXiXiXiXiXiXiXiXiXiXiXiXiXiXiXiXiXiXiXiXiXiXiXiXiXiXiXiXiXiXiXiX",
"iXiXiXiXiXiXiXiXiXiXiXiXiXiXiXiXiXiXiXiXiXiXiXiXiXiXiXiXiXiXiXiXiXiXiXiXiXiXiXiXiXiXiXiXiXiXiXiXiXiXiXiXiXiXiXiXiXiXiXiX",
"iXiXiXiXiXiXiXiXiXiXiXiXiXiXiXiXiXiXiXiXiXiXiXiXiXiXiXiXiXiXiXiXiXiXiXiXiXiXiXiXiXiXiXiXiXiXiXiXiXiXiXiXiXiXiXiXiXiXiXiX",
"iXiXiXiXiXiXiXiXiXiXiXiXiXiXiXiXiXiXiXiXiXiXiXiXiXiXiXiXR.*.4.V.b.b.V.u.iXiXiXiXiXiXiXiXiXiXiXiXiXiXiXiXiXiXiXiXiXiXiXiX",
"iXiXiXiXiXiXiXiXiXiXiXiXiXiXiXiXiXiXiXiXiXiXiXiX*.*.u.V.V.b.3.D U 8.l b.l 4.*.iXiXiXiXiXiXiXiXiXiXiXiXiXiXiXiXiXiXiXiXiX",
"iXiXiXiXiXiXiXiXiXiXiXiXiXiXiXiXiXiXiXiXs.*.u.;X=Xb.b.D D l r P.X.U U D b.V.e.*.iXiXiXiXiXiXiXiXiXiXiXiXiXiXiXiXiXiXiXiX",
"iXiXiXiXiXiXiXiXiXiXiXiXiXiXiXiXiXiXB.l.u.;X>Xb.4.3.N.D U U V.V.b.X.+.U V.e.e.u.*.b.iXiXiXiXiXiXiXiXiXiXiXiXiXiXiXiXiXiX",
"iXiXiXiXiXiXiXiXiXiXiXiXiXiXiXiXs.l.s.s.*.*.*.4.3.N.s 8.V.l r u.e.b.5.F s l 4.m.3.b.b.;X;XiXiXiXiXiXiXiXiXiXiXiXiXiXiXiX",
"iXiXiXiXiXiXiXiXiXiXiXiXiXiXiX[.y.4.*.R.[.*.u.P.N.U 3.V.l b.u.r u.V.J d l >.e.H.*.B K.P.N.P.4.iXiXiXiXiXiXiXiXiXiXiXiXiX",
"iXiXiXiXiXiXiXiXiXiXiXiXiXiXu.*.4.u.[.R.*.4.P.V.V.r s 3.4.4.*.4.*.3.T >.&.B e.e.>.3.y.e.K.V.l V.iXiXiXiXiXiXiXiXiXiXiXiX",
"iXiXiXiXiXiXiXiXiXiXiXiXiX*.u.K.s N.3.y.u.u.u.P.P.4.N.b.*.*.V.R.P.4.r j ..s J F F s K.l 3.>.l &.>XiXiXiXiXiXiXiXiXiXiXiX",
"iXiXiXiXiXiXiXiXiXiXiXiX*.*.V.b.r N.U D K.K.m.m.P.3.b.K.P.r u.4.b.3 ] t q k > < 9 J s l r l 3.3.m.P.iXiXiXiXiXiXiXiXiXiX",
"iXiXiXiXiXiXiXiXiXiXiXiXV.b.P.b.g.8.] 3 9 F b.m.K.l s r s P.U 8.> > g 9 - t < = l l l r K.3.r s m.K.iXiXiXiXiXiXiXiXiXiX",
"iXiXiXiXiXiXiXiXiXiXiX=XN.V.3.N.D r 3 > 3 9 9 t 9 s r s s r F q - ; = - q Z 3 q d ,.l l l >.m.l r &.P.iXiXiXiXiXiXiXiXiX",
"iXiXiXiXiXiXiXiXiXiXiXP.u.V.U U 8.+.> q C J ,.....C k q - 9.< > q - - < q < 9 9 Z q X.C r P.e.r l 3.V.4.iXiXiXiXiXiXiXiX",
"iXiXiXiXiXiXiXiXiXiX;X4.4.4.b.N.8.> q < 2 s s r L ,.t q q q q 9.q k 9 q q 9.2 q < 3 2 9 t m.s s r K.y.*.iXiXiXiXiXiXiXiX",
"iXiXiXiXiXiXiXiXiXiXP.4.*.y.V.D q < < k d l 3.&.T L L f f [ 2 k 2 [ G.2 2 k k t 2 ..s r ,.P.l s l e.l y.*.iXiXiXiXiXiXiX",
"iXiXiXiXiXiXiXiXiXiXu.*.R.*.N.Z q < q 9 d z.3.&.6 j V V V j L d e L e d h h f c j V >. .T l l s 3.e.y.4.iXiXiXiXiXiXiXiX",
"iXiXiXiXiXiXiXiXiXiX*.l.l.R.+.> > = q t r z.3.&.&.z.z.I :.:. .V 6 #.#.a y j e e j z. .T 9 t s r m.e.m.iXiXiXiXiXiXiXiXiX",
"iXiXiXiXiXiXiXiXiXiXR.u.4.N.i.> = = g J r >.&.V z. . .I u u ~ u u u u ~ ~ f.u I w w u :.2 k ,.U 3.b.U iXiXiXiXiXiXiXiXiX",
"iXiXiXiXiXiXiXiXiXiX*.l F 3 = h.- - q 2 &.z.z.z.#.>.I u B f.f.H.! H ! Z.O.Z.q.l.O.t.t.t.r Z J U U l D >XiXiXiXiXiXiXiXiX",
"iXiXiXiXiXiXiXiXiXiX*.U 5.i.= - - = > 2 &.3.r f f c c 4 I u u f.B ~ H O.! O.B ~ { H O.q.u.s 3 C 5.J Z iXiXiXiXiXiXiXiXiX",
"iXiXiXiXiXiXiXiXiXiXiXU Z > q = = = q d &.h &.l s J t ..,.u  .I ~ B ~ #.c f T V :.^.$.q.B ,.3 t F J X.iXiXiXiXiXiXiXiXiX",
"iXiXiXiXiXiXiXiXiXiXiXD Z 3 = , = - q r ..&...9 < - - h.q R.e.V I B c e ..< q q h V B.c.$.u > > > 3 3 iXiXiXiXiXiXiXiXiX",
"iXiXiXiXiXiXiXiXiXiXiXiX3 X.> = - - d r E D C i.> , = = h.9 l.6 I I y #.s C - 3 N.l s.B.c.l = < 3 3 iXiXiXiXiXiXiXiXiXiX",
"iXiXiXiXiXiXiXiXiXiXiXiX%X> < = h.- l ] e ] 3 = ; ; - 5.= q s ' E 4 P T ..b 9.- 3 = b.R.l.H.= = > 8.iXiXiXiXiXiXiXiXiXiX",
"iXiXiXiXiXiXiXiXiXiXiXiXiX3 > = : : t t d C.< - , ; = +.h.- g ' _.7.c b G.2 = g L.- 3 B Z.B 3 = 3 L.iXiXiXiXiXiXiXiXiXiX",
"iXiXiXiXiXiXiXiXiXiXiXiXiXiX< - - - ] G.h b 9 3 !.- = 5.- - q a. .Z.4 B j d > 3 K.a.I ! Z.z.9.= 8.iXiXiXiXiXiXiXiXiXiXiX",
"iXiXiXiXiXiXiXiXiXiXiXiXiXiX+.< h.t F G.f d d t a.q b ..9 9.b E I Z.0.! u u V >.e.u *Xq.O.#.[ F K.iXiXiXiXiXiXiXiXiXiXiX",
"iXiXiXiXiXiXiXiXiXiXiXiXiXiX..q = ..6 E E &.6 T e 6 V r 2 b a.e I O.@Xv q.B ! t.! B B ! { e h j [.iXiXiXiXiXiXiXiXiXiXiX",
"iXiXiXiXiXiXiXiXiXiXiXiXiXiXc r 2 T V [ E V I I I I >.6 j b f T w O.^.H @X^.! O.! H u a y E  .B iXiXiXiXiXiXiXiXiXiXiXiX",
"iXiXiXiXiXiXiXiXiXiXiXiXiXiXiXz.d T V V f j w ~ { ~ u I d a.b r u O.@X`.v J.q.Z.J.q.H Y y x a q.iXiXiXiXiXiXiXiXiXiXiXiX",
"iXiXiXiXiXiXiXiXiXiXiXiXiXiXiX' q L a #.a >.e e j j E f T G.e T j u Z.q.w 0.y u { B I n.`.`.0.l.iXiXiXiXiXiXiXiXiXiXiXiX",
"iXiXiXiXiXiXiXiXiXiXiXiXiXiXiX' !.z.V V j j j j 6 I I #.h E E q f f #.} :.0.J.q.q.q.q.J.J.O.w iXiXiXiXiXiXiXiXiXiXiXiXiX",
"iXiXiXiXiXiXiXiXiXiXiXiXiXiXiX&.G.' 6 V j &.V #.#.I I T 9.< !.2 [ e f _.V c u J.x.x.q.J.`.O.q.iXiXiXiXiXiXiXiXiXiXiXiXiX",
"iXiXiXiXiXiXiXiXiXiXiXiXiXiXiXiX>.j &.6 6 V 6 V #.V a L < q t h j a Z.Z.y.2 y ~ O.Z.Z.J.O.t.q.iXiXiXiXiXiXiXiXiXiXiXiXiX",
"iXiXiXiXiXiXiXiXiXiXiXiXiXiXiXiXz.e &.V 6 &.j j j V V T 2 b f #.B ~ J.q.t.d f #.{ ! t.t.O.*XiXiXiXiXiXiXiXiXiXiXiXiXiXiX",
"iXiXiXiXiXiXiXiXiXiXiXiXiXiXiXiXiXj &.V V j T T T j V e b L T 6 f.~ O.Z.Z.K.[ e #.f.B ! ! *XiXiXiXiXiXiXiXiXiXiXiXiXiXiX",
"iXiXiXiXiXiXiXiXiXiXiXiXiXiXiXiXiXl &.z.&.j L L L T T k ..a.a.a.XXOX]./.I K.2 h 6 :.f.! t.iXiXiXiXiXiXiXiXiXiXiXiXiXiXiX",
"iXiXiXiXiXiXiXiXiXiXiXiXiXiXiXiXiXiX[.z.V j L L L j k h.- 9 q 2 d L f J k k q a.a u B ! t.iXiXiXiXiXiXiXiXiXiXiXiXiXiXiX",
"iXiXiXiXiXiXiXiXiXiXiXiXiXiXiXiXiXiXiX&.&.r L L e  .q k a.1XE E.7.} q.q.! H.s c f.f.B t.H.iXiXiXiXiXiXiXiXiXiXiXiXiXiXiX",
"iXiXiXiXiXiXiXiXiXiXiXiXiXiXiXiXiXiXiXiX&.r L L T I 2 d L e j e P I O.q.q.J.>.6 B B H.t.iXiXiXiXiXiXiXiXiXiXiXiXiXiXiXiX",
"iXiXiXiXiXiXiXiXiXiXiXiXiXiXiXiXiXiXiXiXr j L L e e.2 L s r z.:.u B ! Z.q.q.u a B B B B iXiXiXiXiXiXiXiXiXiXiXiXiXiXiXiX",
"iXiXiXiXiXiXiXiXiXiXiXiXiXiXiXiXiXiXiX- = r L d L V h T T r z.:.{ B Z.q.q.T.!  .f.f.u.iXiXiXiXiXiXiXiXiXiXiXiXiXiXiXiXiX",
"iXiXiXiXiXiXiXiXiXiXiXiXiXiXiXiXiXiX- - h.&.T d d T d j z.z.:.u B t.q.q.q.q.t.u u u iXiXiXiXiXiXiXiXiXiXiXiXiXiXiXiXiXiX",
"iXiXiXiXiXiXiXiXiXiXiXiXiXiXiXiXiXiX- ; C &.r L ..d f T &.z.>.:.{ ! Z.l.q.Z.B >.>.u iXiXiXiXiXiXiXiXiXiXiXiXiXiXiXiXiXiX",
"iXiXiXiXiXiXiXiXiXiXiXiXiXiXiXiXiX= - - 4.l &.r d ..,.T r r 6 V u B B B ! ! 3.r :.H.iXiXiXiXiXiXiXiXiXiXiXiXiXiXiXiXiXiX",
"iXiXiXiXiXiXiXiXiXiXiXiXiXiXiXiX8 - - U *.6 &.l r d d L L ,.L j 6 :.:.:.y.m.l >.H.! U iXiXiXiXiXiXiXiXiXiXiXiXiXiXiXiXiX",
"iXiXiXiXiXiXiXiXiXiXiXiXiXiXiX> - = - b.*.T T r T r L s L ,.....d r r l 3.&.>.H.! ! N.N.N.iXiXiXiXiXiXiXiXiXiXiXiXiXiXiX",
"iXiXiXiXiXiXiXiXiXiXiXiXiXiX> < - - = P.*.d L T r r r r s s ,...t ..r &.m.u H.H.! ! N.N.U U g.iXiXiXiXiXiXiXiXiXiXiXiXiX",
"iXiXiXiXiXiXiXiXiXiXiXiX7 , = - - - - P.*.P.L s s r r T s s r s s s &.e.u.H.! t.t.q.N.N.N.N.U 8.L.iXiXiXiXiXiXiXiXiXiXiX",
"iXiXiXiXiXiXiXiXiXiX5.= = = - = - h.; P.*.u.< d L L r r s d s r l &.>.y.B B ! ! t.oXr U U N.U L.L.D U iXiXiXiXiXiXiXiXiX",
"iXiXiXiXiXiXiX.X5.X.; - = - = - - - ; b.u.4.b.> d ,.L s s d r 3.3.>.y.B y.y.B H H W.g.U U N.U U U F D g.g.U g.iXiXiXiXiX",
"iXiXiXiXiXiXZ 5.7 - - ; - - ; - - = ; D u.4.4.D 9 ..s L s D s l >.e.u u.u B ! ! B.B.D U U U U U g.8.5.g.U r U U g.g.iXiX",
"iXiXiXL.%XZ X.8 - : - = - - - - {.- ; < 4.4.4.4.r q d s ,.,.s l 3.e.y.B u B ! B.W.oX8.U g.U U g.g.U 7 5.D U g.U U N.N.N.",
"N.g.8.5.Z i.q = - - - - - - - - - = - - V.4.4.4.4.V.k d d s r l l >.y.y.y.B B.W.W.oXD g.U U r g.L.g.5.7 5.D L.U U U U N.",
"8.5.Z 3 > > = = ; h.- - = = - h.- = - = N.P.4.4.4.u.V...,.s r r r  .u u >.q.W.W.W.oX8.U U g.U D g.g.L.g 3 8.D g.U U U N.",
"Z Z 3 > g g < = = = - = = = = = = - - = D 4.u.u.u.u.2Xl.T l r r s r >.e.l.W.W.W.W.>X+.g.g.g.D g.L.D g.Z > +.g.D g.g.U U ",
"i.> > g > q = = = = = = = = = = = = = g 5.P.*.*.*.*.[.s.oX>.T s s D r s.W.W.W.W.W.Z +.D D D g.D 8.D g.L.= 3 L.s g.U U U ",
"i.> i.i.7 > g > q = g g , = , g , q 8 > 8.P.*.*.*.R.[.s.oXW.z.r r C s.oXW.W.W.B.W.Z +.L.D g.D L.L.L.g.L.X.> 8.D g.L.g.U "
};
